!!!!SEGMENT: pl-sa--193-a-v-23--005_pausch-eugen--missa-in-c-benedictus.krn
!!!id: 17xx:640
!!!COM: Pausch, Eugen
!!!COM-rism: pe30002453
!!!CDT: 1758-1838
!!!CNT: German
!!!OTL: Missa in C – Benedictus
!!!PDT:
!!!SMS-siglum: PL-SA
!!!SMS-shelfmark: 193/A V 23
!!!NIFC-rismID: 1001036465
!!!URL-scan: http://bc.bdsandomierz.pl/dlibra/publication/1529/edition/1497/content
!!!ONB-nifc: UWAGA: części Mszy: Kyrie, Gloria, Credo, Sanctus, Benedictus, Agnus Dei, Dona Uwaga: brak partii cornu 2.
!!!SMS-variant:
!!!SMS-altvar:
**kern	**fba	**dynam	**kern	**dynam	**kern	**dynam	**kern	**text	**kern	**text	**kern	**kern	**kern	**kern
*part9	*part9	*part9	*part8	*part8	*part7	*part7	*part6	*part6	*part5	*part5	*part4	*part3	*part2	*part1
*staff9	*	*	*staff8	*	*staff7	*	*staff6	*staff6	*staff5	*staff5	*staff4	*staff3	*staff2	*staff1
*I"Organo.	*	*	*I"Violino 2do ~	*	*I"Violino . 1mo ~	*	*I"Baſso	*	*I"Canto	*	*I"Cornu Secundo in F	*I"Cornu Primo in F.	*I"Clarinetto vel Oboe 2do: in C	*I"Clarinetto vel oboe 1. in C
*I'org	*	*	*I'vl 2	*	*I'vl 1	*	*I'B	*	*I'S	*	*I'cor 2	*I'cor 1	*I'cl 2 in C	*I'cl 1 in C
*clefF4	*	*	*clefG2	*	*clefG2	*	*clefF4	*	*clefC1	*	*clefG2	*clefG2	*clefG2	*clefG2
*	*	*	*	*	*	*	*	*	*	*	*ITrd4c7	*ITrd4c7	*	*
*k[b-]	*	*	*k[b-]	*	*k[b-]	*	*k[b-]	*	*k[b-]	*	*k[b-]	*k[b-]	*k[b-]	*k[b-]
*M2/4	*	*	*M2/4	*	*M2/4	*	*M2/4	*	*M2/4	*	*M2/4	*M2/4	*M2/4	*M2/4
*	*	*	*	*	*	*below	*	*	*	*	*	*	*	*
!	!	!	!	!	!	!	!	!	!	!	!	!	!	!LO:TX:a:B:t=Ada&colon;
!LO:TX:a:B:t=and&colon;	!	!	!LO:TX:a:B:t=and&colon;	!	!LO:TX:a:B:t=andante	!	!	!	!	!	!LO:SIC:o:s=:v:brak partii corno 2	!	!LO:TX:a:B:t=andan&colon;	!
8r	.	.	16a/LL	.	16cc\LL	.	8r	.	8r	.	8ryy	8r	8r	8r
.	.	.	16g/JJ	.	16b-\JJ	.	.	.	.	.	.	.	.	.
=1	=1	=1	=1	=1	=1	=1	=1	=1	=1	=1	=1	=1	=1	=1
!	!	!	!	!	!	!	!LO:TX:a:t=34.	!	!LO:TX:a:B:t=and&colon;	!	!	!	!	!LO:TX:a:t=3.
!	!	!	!	!	!	!	!LO:N:vis=00	!	!LO:N:vis=00	!	!	!LO:N:vis=00	!LO:N:vis=0	!LO:N:vis=0
8r	.	.	16g/LL	.	16b-/LL	.	0r	.	0r	.	2ryy	0r	1r	1r
.	.	.	16f/J	.	16a/J	.	.	.	.	.	.	.	.	.
!LO:TX:a:t=P:mixed beam:problem	!	!	!	!	!	!	!	!	!	!	!	!	!	!
8F\L	.	.	8f/J	.	8a/J	.	.	.	.	.	.	.	.	.
8FF/J	.	.	16r	.	16r	.	.	.	.	.	.	.	.	.
.	.	.	16f/LL	.	16a/LL	.	.	.	.	.	.	.	.	.
8r	.	.	16g/	.	16b-/	.	.	.	.	.	.	.	.	.
.	.	.	16a/JJ	.	16cc/JJ	.	.	.	.	.	.	.	.	.
=2	=2	=2	=2	=2	=2	=2	=2	=2	=2	=2	=2	=2	=2	=2
8r	.	.	16a/LL	.	16cc\LL	.	.	.	.	.	2ryy	.	.	.
.	.	.	16g/J	.	16b-\J	.	.	.	.	.	.	.	.	.
!LO:TX:a:t=P:mixed beam:problem	!	!	!	!	!	!	!	!	!	!	!	!	!	!
8c\L	.	.	8g/J	.	8b-\J	.	.	.	.	.	.	.	.	.
8C/J	.	.	8r	.	16r	.	.	.	.	.	.	.	.	.
.	.	.	.	.	16b-/LL	.	.	.	.	.	.	.	.	.
8r	.	.	16g/LL	.	16a/JJ	.	.	.	.	.	.	.	.	.
.	.	.	16f/JJ	.	16r	.	.	.	.	.	.	.	.	.
=3	=3	=3	=3	=3	=3	=3	=3	=3	=3	=3	=3	=3	=3	=3
8r	.	.	16f/LL	.	16a/LL	.	.	.	.	.	2ryy	.	2r	2r
.	.	.	16e/J	.	16g/J	.	.	.	.	.	.	.	.	.
!LO:TX:a:t=P:mixed beam:problem	!	!	!	!	!	!	!	!	!	!	!	!	!	!
8c\L	.	.	8e/J	.	8g/J	.	.	.	.	.	.	.	.	.
8C/J	.	.	16r	.	16r	.	.	.	.	.	.	.	.	.
.	.	.	16e/LL	.	16g/LL	.	.	.	.	.	.	.	.	.
8r	.	.	16f/	.	16a/	.	.	.	.	.	.	.	.	.
.	.	.	16g/JJ	.	16b-/JJ	.	.	.	.	.	.	.	.	.
=4	=4	=4	=4	=4	=4	=4	=4	=4	=4	=4	=4	=4	=4	=4
8r	.	.	16g/LL	.	16b-/LL	.	.	.	.	.	2ryy	.	4r	4r
.	.	.	16f/J	.	16a/J	.	.	.	.	.	.	.	.	.
!LO:TX:a:t=P:mixed beam:problem	!	!	!	!	!	!	!	!	!	!	!	!	!	!
8F\L	.	.	8f/J	.	8a/J	.	.	.	.	.	.	.	.	.
8FF/J	.	.	4r	.	8r	.	.	.	.	.	.	.	8r	8r
8r	.	.	.	.	16c/LL	.	.	.	.	.	.	.	8a/	16.cc\LL
.	.	.	.	.	16f/JJ	.	.	.	.	.	.	.	.	.
.	.	.	.	.	.	.	.	.	.	.	.	.	.	32ff\JJk
=5	=5	=5	=5	=5	=5	=5	=5	=5	=5	=5	=5	=5	=5	=5
!	!	!	!	!	!	!	!LO:N:vis=00	!	!LO:N:vis=00	!	!	!	!	!
8F\L	.	.	4r	.	8.a/L	.	0r	.	0r	.	2ryy	4r	8.cc\L	8.aa\L
8C\J	.	.	.	.	.	.	.	.	.	.	.	.	.	.
.	.	.	.	.	16g/Jk	.	.	.	.	.	.	.	16b-\Jk	16gg\Jk
8AA/L	.	.	8r	.	8f/L	.	.	.	.	.	.	8r	8a\L	8ff\L
8FF/J	.	.	16c/LL	.	16f/L	.	.	.	.	.	.	16f\LL	16cc\L	16.ff\L
.	.	.	16f/JJ	.	16a/JJ	.	.	.	.	.	.	16a\JJ	16ff\JJ	.
.	.	.	.	.	.	.	.	.	.	.	.	.	.	32aa\JJk
=6	=6	=6	=6	=6	=6	=6	=6	=6	=6	=6	=6	=6	=6	=6
8r	.	.	8.a/L	.	8.cc\L	.	.	.	.	.	2ryy	8.cc\L	8.aa\L	8.ccc\L
8C\L	.	.	.	.	.	.	.	.	.	.	.	.	.	.
.	.	.	16g/Jk	.	16b-\Jk	.	.	.	.	.	.	16b-\Jk	16gg\	16bb-\Jk
8F\	.	.	16f/LL	.	16a\LL	.	.	.	.	.	.	8a\	8ff\J	8aa\
.	.	.	16a/	.	16ff\	.	.	.	.	.	.	.	.	.
8F\J	.	.	16a/	.	16ff\	.	.	.	.	.	.	8r	8r	8r
.	.	.	16a/JJ	.	16ff\JJ	.	.	.	.	.	.	.	.	.
!	!	!	!LO:LB:g=original	!	!LO:LB:g=original	!	!	!	!	!	!	!	!	!
=7	=7	=7	=7	=7	=7	=7	=7	=7	=7	=7	=7	=7	=7	=7
8r	.	.	16a/LL	.	16ff\LL	.	.	.	.	.	2ryy	4r	4r	4r
.	.	.	16cc/	.	16ee\	.	.	.	.	.	.	.	.	.
8F\L	.	.	16b-/	.	16dd\	.	.	.	.	.	.	.	.	.
.	.	.	16a/JJ	.	16cc\JJ	.	.	.	.	.	.	.	.	.
8E\	.	.	16b-/LL	.	16dd\LL	.	.	.	.	.	.	8r	8r	8r
.	.	.	16a/	.	16cc\	.	.	.	.	.	.	.	.	.
8F\J	.	.	16g/	.	16b-\	.	.	.	.	.	.	8a\	8ff\	8aa\
.	.	.	16f/JJ	.	16a\JJ	.	.	.	.	.	.	.	.	.
!LO:LB:g=original	!	!	!	!	!	!	!	!	!	!	!	!	!	!
=8	=8	=8	=8	=8	=8	=8	=8	=8	=8	=8	=8	=8	=8	=8
8c\L	.	.	8f/L	.	8a/L	.	.	.	.	.	2ryy	8a\L	8ff\L	8aa\L
8G\	.	.	8e/J	.	8g/J	.	.	.	.	.	.	8g\J	8ee\	8gg\
8C\J	.	.	8r	f	8r	f	.	.	.	.	.	4r	8ee\J	8gg\J
8r	.	.	32c/LLL	.	32c/LLL	.	.	.	.	.	.	.	8r	8r
.	.	.	32Bn/	.	32Bn/	.	.	.	.	.	.	.	.	.
.	.	.	32c/	.	32c/	.	.	.	.	.	.	.	.	.
.	.	.	32B/JJJ	.	32B/JJJ	.	.	.	.	.	.	.	.	.
=9	=9	=9	=9	=9	=9	=9	=9	=9	=9	=9	=9	=9	=9	=9
!	!	!	!	!	!	!	!LO:N:vis=00	!	!LO:N:vis=00	!	!	!	!	!
8r	.	.	8c/	.	8c/	.	0r	.	0r	.	2ryy	8r	4.cc\	4.cc\
32C/LLL	.	f	8r	.	8r	.	.	.	.	.	.	16c/LL	.	.
32BBn/	.	.	.	.	.	.	.	.	.	.	.	.	.	.
32C/	.	.	.	.	.	.	.	.	.	.	.	16c/JJ	.	.
32BB/JJJ	.	.	.	.	.	.	.	.	.	.	.	.	.	.
8C/	.	.	8r	.	8r	.	.	.	.	.	.	8c/	.	.
8r	.	.	16.gg\LL	.	16.bb-X\LL	p	.	.	.	.	.	8r	8gg\	8bb-\
.	.	.	32ee\JJk	.	32gg\JJk	.	.	.	.	.	.	.	.	.
!	!	!	!	!	!	!	!	!	!	!	!	!	!	!LO:LB:g=original
=10	=10	=10	=10	=10	=10	=10	=10	=10	=10	=10	=10	=10	=10	=10
!	!	!LO:DY:rj	!	!	!	!	!	!	!	!	!	!LO:TX:a:t=1.	!	!
8F\L	.	p	8ff\L	.	8aa\L	.	.	.	.	.	2ryy	2r	8ff\L	8aa\L
8C\	.	.	16.gg\L	.	16.bb-\L	.	.	.	.	.	.	.	16gg\L	16bb-\L
.	.	.	.	.	.	.	.	.	.	.	.	.	16ee\JJ	16gg\JJ
.	.	.	32ee\JJk	.	32gg\JJk	.	.	.	.	.	.	.	.	.
!	!	!	!	!	!LO:TX:a:t=P:mixed beam:problem	!	!	!	!	!	!	!LO:LB:g=original	!	!
8F\J	.	.	8ff\	f	8aa\L	f	.	.	.	.	.	.	4ff\	8aa\
8r	.	.	32c/LLL	.	32c/LL	.	.	.	.	.	.	.	.	8r
.	.	.	32Bn/	.	32Bn/	.	.	.	.	.	.	.	.	.
.	.	.	32c/	.	32c/	.	.	.	.	.	.	.	.	.
.	.	.	32B/JJJ	.	32B/JJJ	.	.	.	.	.	.	.	.	.
=11	=11	=11	=11	=11	=11	=11	=11	=11	=11	=11	=11	=11	=11	=11
8r	.	.	8c/	.	8c/	.	.	.	.	.	2ryy	8r	4.cc\	4.cc\
32C/LLL	.	f	8r	.	8r	.	.	.	.	.	.	16c/LL	.	.
32BBn/	.	.	.	.	.	.	.	.	.	.	.	.	.	.
32C/	.	.	.	.	.	.	.	.	.	.	.	16c/JJ	.	.
32BB/JJJ	.	.	.	.	.	.	.	.	.	.	.	.	.	.
8C/	.	.	8r	.	8r	.	.	.	.	.	.	8c/	.	.
8r	.	.	16.gg\LL	.	16.bb-\LL	.	.	.	.	.	.	8r	8gg\	8bb-\
.	.	.	32ee\JJk	.	32gg\JJk	.	.	.	.	.	.	.	.	.
=12	=12	=12	=12	=12	=12	=12	=12	=12	=12	=12	=12	=12	=12	=12
!	!	!	!	!	!	!	!	!	!	!	!	!LO:SIC:o:s=:v:takt powtórzony w kolejnej linijce	!	!
!	!	!	!	!	!	!	!	!	!	!	!	!LO:TX:a:t=1.	!	!
8F\L	.	.	8.ff\L	.	8aa\L	.	.	.	.	.	2ryy	2r	8ff\L	8aa\L
8C\	.	.	.	.	16.bb-\L	.	.	.	.	.	.	.	16.gg\L	16bb-\L
.	.	.	32gg\LL	.	.	.	.	.	.	.	.	.	.	16gg\JJ
.	.	.	32ee\JJJ	.	32gg\JJk	.	.	.	.	.	.	.	32ee\JJk	.
8F\J	.	.	8ff\	.	8aa\L	.	.	.	.	.	.	.	8ff\	8aa\
8r	.	.	8r	.	32ccc\LL	.	.	.	.	.	.	.	8r	8r
.	.	.	.	.	32bbn\	.	.	.	.	.	.	.	.	.
.	.	.	.	.	32ccc\	.	.	.	.	.	.	.	.	.
.	.	.	.	.	32bb\JJJ	.	.	.	.	.	.	.	.	.
!	!	!	!	!	!	!	!	!	!	!	!	!LO:PB:g=original	!	!
=13	=13	=13	=13	=13	=13	=13	=13	=13	=13	=13	=13	=13	=13	=13
!LO:SIC:o:s=:v:nadprogramowy takt w cornu1	!	!	!LO:SIC:o:s=:v:nadprogramowy takt w cornu1	!	!LO:SIC:o:s=:v:nadprogramowy takt w cornu1	!	!LO:SIC:o:s=:v:nadprogramowy takt w cornu1	!	!LO:SIC:o:s=:v:nadprogramowy takt w cornu1	!	!LO:SIC:o:s=:v:nadprogramowy takt w cornu1	!LO:TX:a:t=1.	!LO:SIC:o:s=:v:nadprogramowy takt w cornu1	!LO:SIC:o:s=:v:nadprogramowy takt w cornu1
2ryy	.	.	2ryy	.	2ryy	.	2ryy	.	2ryy	.	2ryy	2r	2ryy	2ryy
=14	=14	=14	=14	=14	=14	=14	=14	=14	=14	=14	=14	=14	=14	=14
!	!	!	!	!	!	!	!LO:N:vis=00	!	!LO:N:vis=00	!	!	!	!	!
16r	.	.	16r	.	8ccc\L	.	0r	.	0r	.	2ryy	8r	8r	8r
16A\LL	.	.	8cc\L	.	.	.	.	.	.	.	.	.	.	.
16A\	.	.	.	.	8ee-X\	.	.	.	.	.	.	8f\L	4cc\	4ee-X\
16A\JJ	.	.	8cc\	.	.	.	.	.	.	.	.	.	.	.
*tremolo	*	*	*	*	*	*	*	*	*	*	*	*	*	*
16A\LL	.	.	.	.	8ee-\	.	.	.	.	.	.	8f\	.	.
16A\	.	.	8cc\	.	.	.	.	.	.	.	.	.	.	.
16A\	.	.	.	.	8ee-\J	.	.	.	.	.	.	8f\J	8cc\	8ee-\
16A\JJ	.	.	16cc\Jk	.	.	.	.	.	.	.	.	.	.	.
*Xtremolo	*	*	*	*	*	*	*	*	*	*	*	*	*	*
=15	=15	=15	=15	=15	=15	=15	=15	=15	=15	=15	=15	=15	=15	=15
8B-\	.	.	8b-\	.	8dd\L	.	.	.	.	.	2ryy	4f\	4b-\	8dd\
8r	.	.	8r	.	32gg\LL	.	.	.	.	.	.	.	.	8r
.	.	.	.	.	32ff#X\	.	.	.	.	.	.	.	.	.
.	.	.	.	.	32aa\	.	.	.	.	.	.	.	.	.
.	.	.	.	.	32gg\JJJ	.	.	.	.	.	.	.	.	.
4r	.	.	4r	.	32bb-\LLL	.	.	.	.	.	.	4r	4r	4r
.	.	.	.	.	32aa\	.	.	.	.	.	.	.	.	.
.	.	.	.	.	32ccc\	.	.	.	.	.	.	.	.	.
.	.	.	.	.	32bb-\JJ	.	.	.	.	.	.	.	.	.
.	.	.	.	.	8ddd\J	.	.	.	.	.	.	.	.	.
!	!	!	!LO:LB:g=original	!	!LO:LB:g=original	!	!	!	!	!	!	!	!	!
=16	=16	=16	=16	=16	=16	=16	=16	=16	=16	=16	=16	=16	=16	=16
*tremolo	*	*	*	*	*	*	*	*	*	*	*	*	*	*
!	!	!	!	!	!	!	!	!	!	!	!	!	!LO:TX:a:t=1.	!LO:TX:a:t=1.
16c\LL	6 4	.	16ff\LL	.	4cc\	.	.	.	.	.	2ryy	4a\	2r	2r
16c\	.	.	16ff\	.	.	.	.	.	.	.	.	.	.	.
16c\	.	.	16ff\	.	.	.	.	.	.	.	.	.	.	.
16c\JJ	.	.	16ff\JJ	.	.	.	.	.	.	.	.	.	.	.
16C/LL	5 3	.	16ff\LL	.	4ggT\	.	.	.	.	.	.	4g\	.	.
16C/	.	.	16ff\	.	.	.	.	.	.	.	.	.	.	.
16C/	.	.	16ee\	.	.	.	.	.	.	.	.	.	.	.
16C/JJ	.	.	16ee\JJ	.	.	.	.	.	.	.	.	.	.	.
=17	=17	=17	=17	=17	=17	=17	=17	=17	=17	=17	=17	=17	=17	=17
*2\right	*	*	*	*	*	*	*	*	*	*	*	*	*	*
8F\L	.	.	8ff\	.	8ff\	.	.	.	.	.	2ryy	8f\	4a/	4ff\
8F\	.	.	32a/LLL	.	8r	.	.	.	.	.	.	8r	.	.
.	.	.	32b-/	.	.	.	.	.	.	.	.	.	.	.
.	.	.	32cc/	.	.	.	.	.	.	.	.	.	.	.
.	.	.	32a/JJJ	.	.	.	.	.	.	.	.	.	.	.
8F\	.	.	4b-/	.	8r	.	.	.	.	.	.	4r	4g/	4ee\
8F\J	.	.	.	.	32ee\LLL	.	.	.	.	.	.	.	.	.
.	.	.	.	.	32ff\	.	.	.	.	.	.	.	.	.
.	.	.	.	.	32gg\	.	.	.	.	.	.	.	.	.
.	.	.	.	.	32ee\JJJ	.	.	.	.	.	.	.	.	.
!LO:LB:g=original	!	!	!	!	!	!	!	!	!	!	!	!	!	!
=18	=18	=18	=18	=18	=18	=18	=18	=18	=18	=18	=18	=18	=18	=18
*	*	*	*	*	*	*	*	*	*	*	*	*2\right	*	*
!	!	!	!	!	!	!	!LO:N:vis=00	!	!	!	!	!	!	!
8F\L	.	.	8a/L	.	8ff\	.	0r	.	2r	.	2ryy	2f\	4a/	4ff\
8F\	.	.	32a/LL	.	8r	.	.	.	.	.	.	.	.	.
.	.	.	32b-/	.	.	.	.	.	.	.	.	.	.	.
.	.	.	32cc/	.	.	.	.	.	.	.	.	.	.	.
.	.	.	32a/JJJ	.	.	.	.	.	.	.	.	.	.	.
8F\	.	.	4b-/	.	8r	.	.	.	.	.	.	.	4g/	4ee\
8F\J	.	.	.	.	32ee\LLL	.	.	.	.	.	.	.	.	.
.	.	.	.	.	32ff\	.	.	.	.	.	.	.	.	.
.	.	.	.	.	32gg\	.	.	.	.	.	.	.	.	.
.	.	.	.	.	32ee\JJJ	.	.	.	.	.	.	.	.	.
*Xtremolo	*	*	*	*	*	*	*	*	*	*	*	*	*	*
=19	=19	=19	=19	=19	=19	=19	=19	=19	=19	=19	=19	=19	=19	=19
8F\L	.	.	8a/	.	8ff\L	.	.	.	4r	.	2ryy	8f\L	8a/L	8ff\L
16F\L	.	.	16.a\LL 16.ff\	.	16.ff\L	.	.	.	.	.	.	16f\L	16a/L	16.ff\L
16F\JJ	.	.	.	.	.	.	.	.	.	.	.	16f\JJ	16cc/JJ	.
.	.	.	32a\JJk 32ff\	.	32aa\JJk	.	.	.	.	.	.	.	.	32aa\JJk
8F\	.	.	8a\ 8ff\	.	8ff\	.	.	.	8r	.	.	8f\	8a/L	8ff\
8r	.	.	8r	.	8r	.	.	.	16cc\	Be-	.	8r	16a/L	16.cc\LL
.	.	.	.	.	.	.	.	.	16b-\	-ne-	.	.	16g/JJ	.
.	.	.	.	.	.	.	.	.	.	.	.	.	.	32a\JJk
=20	=20	=20	=20	=20	=20	=20	=20	=20	=20	=20	=20	=20	=20	=20
!LO:TX:a:t=4.	!	!	!	!	!	!	!	!	!	!	!	!LO:TX:a:t=7.	!	!
!LO:N:vis=00	!	!	!	!	!	!	!	!	!	!	!	!LO:N:vis=00	!	!
0r	.	.	8r	.	8r	.	.	.	8a\	-dic-	2ryy	0r	8f/L	8a/L
.	.	.	32f/LLL	.	32f/LLL	.	.	.	8a\	-tus	.	.	8f/J	8a/J
.	.	.	32e/	.	32e/	.	.	.	.	.	.	.	.	.
.	.	.	32f/	.	32f/	.	.	.	.	.	.	.	.	.
.	.	.	32e/JJJ	.	32e/JJJ	.	.	.	.	.	.	.	.	.
.	.	.	8f/	.	8f/	.	.	.	16r	.	.	.	16r	16r
.	.	.	.	.	.	.	.	.	16a\LL	qui	.	.	16f/LL	16a/LL
.	.	.	8r	.	8r	.	.	.	16b-\	.	.	.	16g/	16b-/
.	.	.	.	.	.	.	.	.	16cc\JJ	.	.	.	16a/JJ	16cc/JJ
!	!	!	!	!	!	!	!	!	!	!	!	!	!	!LO:LB:g=original
=21	=21	=21	=21	=21	=21	=21	=21	=21	=21	=21	=21	=21	=21	=21
!	!	!	!LO:SIC:o:s=:v:znak repetycji	!	!LO:SIC:o:s=:v:znak repetycji	!	!	!	!	!	!	!	!	!
.	.	.	8r	.	8r	f	.	.	16cc\LL	ve-	2ryy	.	16a/LL	16cc\LL
.	.	.	.	.	.	.	.	.	16b-\JJ	.	.	.	16g/J	16b-\J
.	.	.	32c/LLL	.	32c/LLL	.	.	.	8b-\	-nit	.	.	8g/J	8b-\J
.	.	.	32Bn/	.	32Bn/	.	.	.	.	.	.	.	.	.
.	.	.	32c/	.	32c/	.	.	.	.	.	.	.	.	.
.	.	.	32B/JJJ	.	32B/JJJ	.	.	.	.	.	.	.	.	.
.	.	.	8c/	.	8c/	.	.	.	8r	.	.	.	8r	8r
.	.	.	8r	.	8r	.	.	.	16b-\	Be-	.	.	16g/LL	16b-/LL
.	.	.	.	.	.	.	.	.	16a\	-ne-	.	.	16f/JJ	16a/JJ
=22	=22	=22	=22	=22	=22	=22	=22	=22	=22	=22	=22	=22	=22	=22
!	!	!	!LO:SIC:o:s=:v:tak powtórzony repetycją	!	!LO:SIC:o:s=:v:takt powtórzony znakiem repetycji	!	!LO:N:vis=00	!	!	!	!	!	!	!
.	.	.	8ryy	.	8ryy	.	0r	.	8g\	-dic-	2ryy	.	8e/L	8g/L
.	.	.	32c/LLLyy	.	32c/LLLyy	.	.	.	8g\	-tus	.	.	8e/J	8g/J
.	.	.	32Bn/yy	.	32Bn/yy	.	.	.	.	.	.	.	.	.
.	.	.	32c/yy	.	32c/yy	.	.	.	.	.	.	.	.	.
.	.	.	32B/JJJyy	.	32B/JJJyy	.	.	.	.	.	.	.	.	.
.	.	.	8c/yy	.	8c/yy	.	.	.	16r	.	.	.	16r	16r
.	.	.	.	.	.	.	.	.	16g\LL	qui	.	.	16e/LL	16g/LL
.	.	.	8ryy	.	8ryy	.	.	.	16a\	.	.	.	16f/	16a/
.	.	.	.	.	.	.	.	.	16b-\JJ	.	.	.	16g/JJ	16b-/JJ
!	!	!	!LO:PB:g=original	!	!	!	!	!	!LO:LB:g=original	!	!	!	!	!
=23	=23	=23	=23	=23	=23	=23	=23	=23	=23	=23	=23	=23	=23	=23
!	!	!	!LO:SIC:o:s=:v:wykreślony takt	!	!	!	!	!	!	!	!	!	!	!
.	.	.	8r	.	8r	.	.	.	16b-\LL	ve-	2ryy	.	16g/LL	16b-/LL
.	.	.	.	.	.	.	.	.	16a\JJ	.	.	.	16f/J	16a/J
.	.	.	32f/LLL	.	32f/LLL	.	.	.	8a\	-nit	.	.	8f/J	8a/J
.	.	.	32e/	.	32e/	.	.	.	.	.	.	.	.	.
.	.	.	32f/	.	32f/	.	.	.	.	.	.	.	.	.
.	.	.	32e/JJJ	.	32e/JJJ	.	.	.	.	.	.	.	.	.
!	!	!	!	!	!	!	!	!	!	!	!	!	!LO:LB:g=original	!
.	.	.	8f/	.	8f/	.	.	.	8r	.	.	.	8r	8r
.	.	.	8r	.	8r	.	.	.	16c/LL	qui	.	.	8a/	16.cc\LL
.	.	.	.	.	.	.	.	.	16f/JJ	.	.	.	.	.
.	.	.	.	.	.	.	.	.	.	.	.	.	.	32ff\JJk
=24	=24	=24	=24	=24	=24	=24	=24	=24	=24	=24	=24	=24	=24	=24
!	!	!	!	!	!	!	!	!	!	!	!	!LO:N:vis=0	!	!
8F\L	.	.	4r	.	4r	.	.	.	8.a\L	ve-	2ryy	1r	8.cc\L	8.aa\L
8C\J	.	.	.	.	.	.	.	.	.	.	.	.	.	.
.	.	.	.	.	.	.	.	.	16g\Jk	.	.	.	16b-\Jk	16gg\Jk
8AA/L	.	.	8r	f	8r	p	.	.	8f/	-nit	.	.	8a/	8ff\
8FF/J	.	.	16.a\LL	.	16.ff\LL	.	.	.	16f/LL	qui	.	.	8r	8r
.	.	.	.	.	.	.	.	.	16a/JJ	.	.	.	.	.
.	.	.	32ff\JJk	.	32aa\JJk	.	.	.	.	.	.	.	.	.
=25	=25	=25	=25	=25	=25	=25	=25	=25	=25	=25	=25	=25	=25	=25
!	!	!	!	!	!	!	!	!	!	!	!	!	!LO:TX:a:t=2	!LO:TX:a:t=2.
!	!	!	!	!	!	!	!	!	!	!	!	!	!LO:N:vis=0	!LO:N:vis=0
8r	.	.	8.aa\L	.	8.ccc\L	.	.	.	8.dd\L	ve-	2ryy	.	1r	1r
8C\L	.	.	.	.	.	.	.	.	.	.	.	.	.	.
.	.	.	16gg\Jk	.	16bb-\Jk	.	.	.	16cc\Jk	.	.	.	.	.
8F\J	.	.	16ff\LL	.	16aa\LL	.	.	.	8a\	-nit	.	.	.	.
.	.	.	16a\	.	16ff\	.	.	.	.	.	.	.	.	.
8r	.	.	16a\	.	16ff\	.	.	.	8ff\	in	.	.	.	.
.	.	.	16a\JJ	.	16ff\JJ	.	.	.	.	.	.	.	.	.
!	!	!	!	!	!LO:LB:g=original	!	!	!	!	!	!	!	!	!
=26	=26	=26	=26	=26	=26	=26	=26	=26	=26	=26	=26	=26	=26	=26
!	!	!	!	!	!	!	!LO:N:vis=00	!	!	!	!	!	!	!
8r	.	.	16a/LL	.	16ff\LL	.	0r	.	16ff\LL	no-	2ryy	2r	.	.
.	.	.	16cc/	.	16ee\	.	.	.	16ee\JJ	.	.	.	.	.
8F\L	.	.	16b-/	.	16dd\	.	.	.	16dd\	-mi-	.	.	.	.
.	.	.	16a/JJ	.	16cc\JJ	.	.	.	16cc\	-ne	.	.	.	.
8E\	.	.	16b-/LL	.	16dd\LL	.	.	.	16dd\LL	Do-	.	.	.	.
.	.	.	16a/	.	16cc\	.	.	.	16cc\JJ	.	.	.	.	.
8F\J	.	.	16g/	.	16b-\	.	.	.	16b-\LL	-mi-	.	.	.	.
.	.	.	16f/JJ	.	16a\JJ	.	.	.	16a\JJ	.	.	.	.	.
=27	=27	=27	=27	=27	=27	=27	=27	=27	=27	=27	=27	=27	=27	=27
8c\L	.	.	8f/L	.	8at/L	.	.	.	4g\	-ni	2ryy	8r	8r	8r
8G\	.	.	8e/J	.	8g/J	.	.	.	.	.	.	16c/LL	16.ee\LL	16.gg\LL
.	.	.	.	.	.	.	.	.	.	.	.	16c/JJ	.	.
.	.	.	.	.	.	.	.	.	.	.	.	.	32cc\JJk	32ee\JJk
8C\J	.	.	4r	.	4r	.	.	.	8r	.	.	8c/	8ee\	8ff\
8r	.	.	.	.	.	.	.	.	16g\	Be-	.	8r	8r	8r
.	.	.	.	.	.	.	.	.	16g\	-ne-	.	.	.	.
=28	=28	=28	=28	=28	=28	=28	=28	=28	=28	=28	=28	=28	=28	=28
!	!	!	!LO:SIC:o:s=:v:znak repetycji	!	!	!	!	!	!	!	!	!LO:TX:a:t=8.	!LO:TX:a:t=8.	!LO:TX:a:t=8.
!	!	!	!	!	!	!	!	!	!	!	!	!LO:N:vis=00	!LO:N:vis=00	!LO:N:vis=00
16r	.	.	16r	.	16r	.	.	.	8cc\	-dic-	2ryy	0r	0r	0r
16C/LL	6 5	.	16g/LL	.	16ee\LL	p	.	.	.	.	.	.	.	.
16C/	.	.	16g/	.	16ee\	.	.	.	4cc\	-tus	.	.	.	.
16C/JJ	.	.	16g/JJ	.	16ee\JJ	.	.	.	.	.	.	.	.	.
*tremolo	*	*	*tremolo	*	*tremolo	*	*	*	*	*	*	*	*	*
16C/LL	.	.	16g/LL	.	16ee\LL	.	.	.	.	.	.	.	.	.
16C/	.	.	16g/	.	16ee\	.	.	.	.	.	.	.	.	.
16C/	.	.	16g/	.	16ee\	.	.	.	16ee\LL	qui	.	.	.	.
16C/JJ	.	.	16g/JJ	.	16ee\JJ	.	.	.	16cc\JJ	.	.	.	.	.
*Xtremolo	*	*	*Xtremolo	*	*Xtremolo	*	*	*	*	*	*	*	*	*
!	!	!	!	!	!	!	!	!	!LO:LB:g=original	!	!	!	!	!
=29	=29	=29	=29	=29	=29	=29	=29	=29	=29	=29	=29	=29	=29	=29
16r	.	.	16r	.	16r	.	.	.	16cc\LL	ve-	2ryy	.	.	.
16D\LL	.	.	16g/LL	.	16ff\LL	.	.	.	16bn\JJ	.	.	.	.	.
16D\	.	.	16g/	.	16ff\	.	.	.	4b\	-nit	.	.	.	.
16D\JJ	.	.	16g/JJ	.	16ff\JJ	.	.	.	.	.	.	.	.	.
*tremolo	*	*	*tremolo	*	*tremolo	*	*	*	*	*	*	*	*	*
16D\LL	.	.	16g/LL	.	16ff\LL	.	.	.	.	.	.	.	.	.
16D\	.	.	16g/	.	16ff\	.	.	.	.	.	.	.	.	.
16D\	.	.	16g/	.	16ff\	.	.	.	8cc\	qui	.	.	.	.
16D\JJ	.	.	16g/JJ	.	16ff\JJ	.	.	.	.	.	.	.	.	.
*Xtremolo	*	*	*Xtremolo	*	*Xtremolo	*	*	*	*	*	*	*	*	*
!LO:LB:g=original	!	!	!	!	!	!	!	!	!	!	!	!	!	!
=30	=30	=30	=30	=30	=30	=30	=30	=30	=30	=30	=30	=30	=30	=30
!	!	!	!LO:SIC:o:s=:v:takty powtó©zone repetycją	!	!	!	!LO:N:vis=00	!	!	!	!	!	!	!
16r	.	.	16ryy	.	16r	.	0r	.	8dd\	ve-	2ryy	.	.	.
16BBn/LL	.	.	16g/LLyy	.	16ff\LL	.	.	.	.	.	.	.	.	.
16BB/	.	.	16g/yy	.	16ff\	.	.	.	4dd\	-nit	.	.	.	.
16BB/JJ	.	.	16g/JJyy	.	16ff\JJ	.	.	.	.	.	.	.	.	.
*tremolo	*	*	*tremolo	*	*tremolo	*	*	*	*	*	*	*	*	*
16BB/LL	.	.	16g/LLyy	.	16ff\LL	.	.	.	.	.	.	.	.	.
16BB/	.	.	16g/yy	.	16ff\	.	.	.	.	.	.	.	.	.
16BB/	.	.	16g/yy	.	16ff\	.	.	.	8ff\	in	.	.	.	.
16BB/JJ	.	.	16g/JJyy	.	16ff\JJ	.	.	.	.	.	.	.	.	.
*Xtremolo	*	*	*Xtremolo	*	*Xtremolo	*	*	*	*	*	*	*	*	*
=31	=31	=31	=31	=31	=31	=31	=31	=31	=31	=31	=31	=31	=31	=31
16r	.	.	16ryy	.	16r	.	.	.	16ee\	No-	2ryy	.	.	.
16C/LL	.	.	16g/LLyy	.	16ee\LL	.	.	.	16ee\	-mi-	.	.	.	.
16C/	.	.	16g/yy	.	16ee\	.	.	.	8ee\	-ne	.	.	.	.
16C/JJ	.	.	16g/JJyy	.	16ee\JJ	.	.	.	.	.	.	.	.	.
*	*	*	*tremolo	*	*	*	*	*	*	*	*	*	*	*
8C\L	.	.	16g/LLyy	.	16ee\LL	.	.	.	16r	.	.	.	.	.
.	.	.	16g/yy	.	16gg\	.	.	.	16gg\LL	in	.	.	.	.
8E\J	.	.	16g/yy	.	16ff\	.	.	.	16ff\	.	.	.	.	.
.	.	.	16g/JJyy	.	16ee\JJ	.	.	.	16ee\JJ	.	.	.	.	.
*	*	*	*Xtremolo	*	*	*	*	*	*	*	*	*	*	*
=32	=32	=32	=32	=32	=32	=32	=32	=32	=32	=32	=32	=32	=32	=32
!	!	!	!	!	!	!	!	!	!	!	!	!LO:N:vis=00	!LO:N:vis=00	!LO:N:vis=00
8F\	.	.	16r	.	16r	.	.	.	8dd\	no-	2ryy	0r	0r	0r
.	.	.	16cc\LL	.	16dd\LL	.	.	.	.	.	.	.	.	.
8r	.	.	16cc\	.	16dd\	.	.	.	4dd\	-mi-	.	.	.	.
.	.	.	16cc\JJ	.	16dd\JJ	.	.	.	.	.	.	.	.	.
8F#X\	5	.	16r	.	16r	.	.	.	.	.	.	.	.	.
.	.	.	16cc\LL	.	16dd\LL	.	.	.	.	.	.	.	.	.
8r	.	.	16cc\	.	16dd\	.	.	.	8cc\	-ne	.	.	.	.
.	.	.	16cc\JJ	.	16dd\JJ	.	.	.	.	.	.	.	.	.
!	!	!	!LO:LB:g=original	!	!	!	!	!	!	!	!	!	!	!
=33	=33	=33	=33	=33	=33	=33	=33	=33	=33	=33	=33	=33	=33	=33
!	!	!	!LO:SIC:o:s=:v:wykreślony łuk	!	!	!	!	!	!	!	!	!	!	!
8G\	.	.	16r	.	16r	.	.	.	8bn\	Do-	2ryy	.	.	.
.	.	.	16bn\LL	.	16dd\LL	.	.	.	.	.	.	.	.	.
8r	.	.	16b\	.	16dd\	.	.	.	16a\LL	-mi-	.	.	.	.
.	.	.	16b\JJ	.	16dd\JJ	.	.	.	16g\JJ	.	.	.	.	.
8E\	.	.	16r	.	16r	.	.	.	8cc\	-ni	.	.	.	.
.	.	.	16g/LL	.	16cc\LL	.	.	.	.	.	.	.	.	.
8r	.	.	16g/	.	16cc\	.	.	.	8ee\	in	.	.	.	.
.	.	.	16g/JJ	.	16cc\JJ	.	.	.	.	.	.	.	.	.
=34	=34	=34	=34	=34	=34	=34	=34	=34	=34	=34	=34	=34	=34	=34
!	!	!	!	!	!	!	!LO:N:vis=0	!	!	!	!	!	!	!
8FnX\	.	.	16r	.	16r	.	1r	.	16ee\LL	no-	2ryy	.	.	.
.	.	.	16cc/LL	.	16dd\LL	.	.	.	16dd\JJ	.	.	.	.	.
8r	.	.	16cc/	.	16dd\	.	.	.	4dd\	-mi-	.	.	.	.
.	.	.	16cc/JJ	.	16dd\JJ	.	.	.	.	.	.	.	.	.
8F#X\	.	.	16r	.	16r	.	.	.	.	.	.	.	.	.
.	.	.	16a/LL	.	16cc\LL	.	.	.	.	.	.	.	.	.
8r	.	.	16a/	.	16cc\	.	.	.	8cc\	-ne	.	.	.	.
.	.	.	16a/JJ	.	16cc\JJ	.	.	.	.	.	.	.	.	.
!	!	!	!	!	!LO:LB:g=original	!	!	!	!LO:LB:g=original	!	!	!	!	!
=35	=35	=35	=35	=35	=35	=35	=35	=35	=35	=35	=35	=35	=35	=35
!LO:TX:a:t=P:mixed beam:problem	!	!	!	!	!	!	!	!	!	!	!	!	!	!
16G\LL	.	.	16r	.	16r	.	.	.	16bn\LL	Do-	2ryy	.	.	.
16GG/	.	.	16d/LL	.	16bn\LL	.	.	.	16a\JJ	.	.	.	.	.
16GG/	.	.	16d/	.	16b\	.	.	.	8g\	-mi-	.	.	.	.
16GG/JJ	.	.	16d/JJ	.	16b\JJ	.	.	.	.	.	.	.	.	.
8GG/	.	.	8d/	.	8b\	.	.	.	8g\	-ni	.	.	.	.
!	!	!	!	!LO:DY:t=f	!	!	!	!	!	!	!	!	!	!
8r	.	.	32g/LLL	f	32g/LLL	f	.	.	8r	.	.	.	.	.
.	.	.	32f#X/	.	32f#X/	.	.	.	.	.	.	.	.	.
.	.	.	32g/	.	32g/	.	.	.	.	.	.	.	.	.
.	.	.	32f#/JJJ	.	32f#/JJJ	.	.	.	.	.	.	.	.	.
=36	=36	=36	=36	=36	=36	=36	=36	=36	=36	=36	=36	=36	=36	=36
8r	.	.	8g/	.	8g/	.	4r	.	4r	.	2ryy	8r	4.g/	4.gg\
32G\LLL	.	.	8r	.	8r	.	.	.	.	.	.	16g\LL	.	.
32F#X\	.	.	.	.	.	.	.	.	.	.	.	.	.	.
32G\	.	.	.	.	.	.	.	.	.	.	.	16g\JJ	.	.
32F#\JJJ	.	.	.	.	.	.	.	.	.	.	.	.	.	.
8G\	.	.	8r	p	8r	.	8r	.	8r	.	.	4g\	.	.
8r	.	.	16dd\LL	.	16.ff\LL	.	8G\	O-	16ff\LL	O-	.	.	8dd\	8ff\
.	.	.	16bn\JJ	.	.	.	.	.	16dd\JJ	.	.	.	.	.
.	.	.	.	.	32dd\JJk	.	.	.	.	.	.	.	.	.
!LO:LB:g=original	!	!	!	!	!	!	!	!	!	!	!	!LO:LB:g=original	!	!
=37	=37	=37	=37	=37	=37	=37	=37	=37	=37	=37	=37	=37	=37	=37
8C/L	.	.	8cc\L	.	8ee\L	.	8c\L	-san-	8.ee\L	-san-	2ryy	8g\L	8cc\L	8ee\L
8GG/	.	.	16.dd\L	.	16.ff\L	.	8G\J	.	.	.	.	16g\L	8dd\	8ff\
.	.	.	.	.	.	.	.	.	32ff\LL	.	.	16g\JJ	.	.
.	.	.	32bn\JJk	.	32dd\JJk	.	.	.	32dd\JJJ	.	.	.	.	.
!	!	!	!	!	!LO:TX:a:t=P:mixed beam:problem	!	!	!	!	!	!	!	!	!
8C/J	.	.	8cc\	.	8ee\L	.	8C/	-na	8ee\	-na	.	4g\	8cc\J	8ee\J
!	!	!	!	!LO:DY:t=f	!	!	!	!	!	!	!	!	!	!
8r	.	.	32g/LLL	f	32g/LL	f	8r	.	8r	.	.	.	8r	8r
.	.	.	32f#X/	.	32f#X/	.	.	.	.	.	.	.	.	.
.	.	.	32g/	.	32g/	.	.	.	.	.	.	.	.	.
.	.	.	32f#/JJJ	.	32f#/JJJ	.	.	.	.	.	.	.	.	.
=38	=38	=38	=38	=38	=38	=38	=38	=38	=38	=38	=38	=38	=38	=38
8r	.	.	8g/	.	8g/	.	4r	.	4r	.	2ryy	8r	4.g/	4.gg\
32G\LLL	.	.	8r	.	8r	.	.	.	.	.	.	16g\LL	.	.
32F\	.	.	.	.	.	.	.	.	.	.	.	.	.	.
32G\	.	.	.	.	.	.	.	.	.	.	.	16g\JJ	.	.
32F\JJJ	.	.	.	.	.	.	.	.	.	.	.	.	.	.
8G\	.	.	8r	.	8r	.	8r	.	8r	.	.	4g\	.	.
8r	.	.	16.dd\LL	.	16.ff\LL	p	8G\	O-	16.ff\LL	O-	.	.	8dd\	8ff\
.	.	.	32bn\JJk	.	32dd\JJk	.	.	.	32dd\JJk	.	.	.	.	.
!	!	!	!LO:LB:g=original	!	!	!	!	!	!	!	!	!	!	!LO:LB:g=original
=39	=39	=39	=39	=39	=39	=39	=39	=39	=39	=39	=39	=39	=39	=39
8C/L	.	.	8cc\L	.	8ee\L	.	8c\L	-san-	8.ee\L	-san-	2ryy	8g\L	8cc\L	8ee\L
8GG/	.	.	16.dd\L	.	16.ff\L	.	8G\J	.	.	.	.	16g\L	8dd\	8ff\
.	.	.	.	.	.	.	.	.	32ff\LL	.	.	16g\JJ	.	.
.	.	.	32bn\JJk	.	32dd\JJk	.	.	.	32dd\JJJ	.	.	.	.	.
8C/J	.	.	8cc\	.	8ee\L	.	8C/	-na	8ee\	-na	.	4g\	8cc\J	8ee\J
8r	.	.	8r	.	32cc\LL	.	8r	.	8r	.	.	.	8r	8r
.	.	.	.	.	32bn\	.	.	.	.	.	.	.	.	.
.	.	.	.	.	32cc\	.	.	.	.	.	.	.	.	.
.	.	.	.	.	32b\JJJ	.	.	.	.	.	.	.	.	.
=40	=40	=40	=40	=40	=40	=40	=40	=40	=40	=40	=40	=40	=40	=40
*	*	*	*	*	*	*	*	*	*	*	*	*	*2\right	*2\right
8r	.	.	16gg\KL	.	16cc\KL	.	8E\	in	8gg\	in	2ryy	8r	2gg\	2bb-X\
.	.	.	8gg\	.	8bb-\	f	.	.	.	.	.	.	.	.
8E\L	6	.	.	.	.	.	8E\	ex-	8gg\	ex-	.	8g\L	.	.
.	.	.	8gg\	.	8bb-\	.	.	.	.	.	.	.	.	.
8E\	.	.	.	.	.	.	4E\	-cel-	4gg\	-cel-	.	8g\	.	.
.	.	.	8gg\	.	8bb-\	.	.	.	.	.	.	.	.	.
8E\J	.	.	.	.	.	.	.	.	.	.	.	8g\J	.	.
.	.	.	16gg\Jk	.	16bb-\Jk	.	.	.	.	.	.	.	.	.
!	!	!	!	!	!	!	!LO:LB:g=original	!	!	!	!	!	!	!
=41	=41	=41	=41	=41	=41	=41	=41	=41	=41	=41	=41	=41	=41	=41
8F\	.	.	8ff\	.	8aa\L	.	4F\	-sis	4ff\	-sis	2ryy	4a\	4ff\	4aa\
8r	.	.	8r	.	32dd\LL	.	.	.	.	.	.	.	.	.
.	.	.	.	.	32cc#X\	.	.	.	.	.	.	.	.	.
.	.	.	.	.	32ee\	.	.	.	.	.	.	.	.	.
.	.	.	.	.	32dd\JJJ	.	.	.	.	.	.	.	.	.
4r	.	.	4r	.	32ff\LLL	.	4r	.	4r	.	.	4r	4r	4r
.	.	.	.	.	32ee\	.	.	.	.	.	.	.	.	.
.	.	.	.	.	32gg\	.	.	.	.	.	.	.	.	.
.	.	.	.	.	32ee\JJ	.	.	.	.	.	.	.	.	.
.	.	.	.	.	8aa\J	.	.	.	.	.	.	.	.	.
!	!	!	!	!	!LO:LB:g=original	!	!	!	!LO:LB:g=original	!	!	!	!	!
=42	=42	=42	=42	=42	=42	=42	=42	=42	=42	=42	=42	=42	=42	=42
*tremolo	*	*	*tremolo	*	*	*	*	*	*	*	*	*	*	*
16G\LL	6 4	.	16ee\LL	.	4g/	.	8G\	in	8ee\	in	2ryy	8g\L	4cc\	4ee\
16G\	.	.	16ee\	.	.	.	.	.	.	.	.	.	.	.
16G\	.	.	16ee\	.	.	.	8G\	ex-	8ee\	ex-	.	8g\J	.	.
16G\JJ	.	.	16ee\JJ	.	.	.	.	.	.	.	.	.	.	.
16GG/LL	5 3	.	16bn\LL	.	4dd\	.	4G\	-cel-	4dd\	-cel-	.	4g\	4bn\	4dd\
16GG/	.	.	16b\	.	.	.	.	.	.	.	.	.	.	.
16GG/	.	.	16b\	.	.	.	.	.	.	.	.	.	.	.
16GG/JJ	.	.	16b\JJ	.	.	.	.	.	.	.	.	.	.	.
*Xtremolo	*	*	*Xtremolo	*	*	*	*	*	*	*	*	*	*	*
=43	=43	=43	=43	=43	=43	=43	=43	=43	=43	=43	=43	=43	=43	=43
!	!	!	!	!	!	!	!	!	!LO:SIC:o:s=:v:znak powtórki	!	!	!	!	!
8C/L	.	.	4e/ 4cc/	.	8cc\	.	4C/	-sis	4cc\	-sis	2ryy	8g\L	8cc\L	8ee\L
8GG/	.	.	.	.	8r	.	.	.	.	.	.	16g\L	8cc\	8ee\
.	.	.	.	.	.	.	.	.	.	.	.	16g\JJ	.	.
8C/J	.	.	4r	.	8r	.	4r	.	8r	.	.	8g\	8cc\J	8ee\J
8r	.	.	.	.	16.g/LL	.	.	.	16g\LL	qui	.	8r	8r	8r
.	.	.	.	.	.	.	.	.	16cc\JJ	.	.	.	.	.
.	.	.	.	.	32cc/JJk	.	.	.	.	.	.	.	.	.
=44	=44	=44	=44	=44	=44	=44	=44	=44	=44	=44	=44	=44	=44	=44
!	!	!	!	!	!	!	!LO:TX:a:t=1	!	!	!	!	!LO:TX:a:t=1	!LO:TX:a:t=3.	!LO:TX:a:t=3.
!	!	!	!	!	!	!	!	!	!	!	!	!	!LO:N:vis=0	!LO:N:vis=0
2C/	.	.	4r	.	8.ee\L	.	2r	.	8.ee\L	ve-	2ryy	2r	1r	1r
.	.	.	.	.	16dd\Jk	.	.	.	16cc\Jk	.	.	.	.	.
.	.	.	8r	.	8cc\L	.	.	.	8cc\	-nit	.	.	.	.
.	.	.	16.g/LL	.	16.cc\L	.	.	.	16cc\LL	qui	.	.	.	.
.	.	.	.	.	.	.	.	.	16ee\JJ	.	.	.	.	.
.	.	.	32cc/JJk	.	32ee\JJk	.	.	.	.	.	.	.	.	.
=45	=45	=45	=45	=45	=45	=45	=45	=45	=45	=45	=45	=45	=45	=45
4.C/	.	.	8.ee\L	.	8.gg\L	.	4r	.	8.gg\L	ve-	2ryy	4r	.	.
.	.	.	16dd\Jk	.	16ff\Jk	.	.	.	16ff\Jk	.	.	.	.	.
.	.	.	8cc\	.	8ee\L	.	8r	.	8ee\	-nit	.	8r	.	.
8C/	.	.	16r	.	16gg\L	.	16c\LL	in	8gg\	in	.	8g\	.	.
.	.	.	16g/	.	16ee\JJ	.	16G\JJ	.	.	.	.	.	.	.
!LO:LB:g=original	!	!	!	!	!	!	!	!	!	!	!	!	!	!
=46	=46	=46	=46	=46	=46	=46	=46	=46	=46	=46	=46	=46	=46	=46
8F\L	.	.	16g/LL	.	16ee\LL	.	16G\LL	No-	8aa\	no-	2ryy	4a\	2r	2r
.	.	.	16f/	.	16dd\	.	16F\JJ	.	.	.	.	.	.	.
8F\	.	.	16a/	.	16ff\	.	16A\	-mi-	16ff\	-mi-	.	.	.	.
.	.	.	16g/JJ	.	16dd\JJ	.	16F\	-ne	16ff\	-ne	.	.	.	.
!LO:TX:a:t=P:mixed beam:problem	!	!	!	!	!	!	!	!	!	!	!	!	!	!
8G\	.	.	16f/LL	.	16dd\LL	.	16F\LL	Do-	16ff\LL	Do-	.	8g\L	.	.
.	.	.	16e/	.	16cc\	.	16E\JJ	.	16ee\JJ	.	.	.	.	.
8GG/J	.	.	16e/	.	16cc\	.	16E\LL	-mi-	16ee\LL	-mi-	.	8g\J	.	.
.	.	.	16d/JJ	.	16bn\JJ	.	16D\JJ	.	16dd\JJ	.	.	.	.	.
!	!	!	!	!	!	!	!	!	!	!	!	!LO:LB:g=original	!	!
=47	=47	=47	=47	=47	=47	=47	=47	=47	=47	=47	=47	=47	=47	=47
!	!	!	!	!	!	!	!	!	!LO:SIC:o:s=:v:takty powtórzone znakiem repetycji	!	!	!	!	!
8C/L	.	.	4e/	.	4cc\	.	4E\	-ni	4cc\yy	-ni	2ryy	4g\	8r	8r
8GG/	.	.	.	.	.	.	.	.	.	.	.	.	4e/	4cc\
8C/J	.	.	4r	.	8r	.	4r	.	8ryy	.	.	4r	.	.
8r	.	.	.	.	16.G/LL	.	.	.	16g\LLyy	qui	.	.	8e/	8cc\
.	.	.	.	.	.	.	.	.	16cc\JJyy	.	.	.	.	.
.	.	.	.	.	32c/JJk	.	.	.	.	.	.	.	.	.
=48	=48	=48	=48	=48	=48	=48	=48	=48	=48	=48	=48	=48	=48	=48
!	!	!	!	!	!	!	!	!	!	!	!	!	!LO:TX:a:t=3.	!LO:TX:a:t=3.
!	!	!	!	!	!	!	!	!	!	!	!	!	!LO:N:vis=0	!LO:N:vis=0
2c\	.	.	4r	.	8.e/L	.	2r	.	8.ee\Lyy	ve-	2ryy	2c/	1r	1r
.	.	.	.	.	16d/Jk	.	.	.	16cc\Jkyy	.	.	.	.	.
.	.	.	8r	.	8c/L	.	.	.	8cc\yy	-nit	.	.	.	.
.	.	.	16G/LL	.	16.c/L	.	.	.	16cc\LLyy	qui	.	.	.	.
.	.	.	16c/JJ	.	.	.	.	.	16ee\JJyy	.	.	.	.	.
.	.	.	.	.	32e/JJk	.	.	.	.	.	.	.	.	.
!	!	!	!LO:LB:g=original	!	!	!	!	!	!	!	!	!	!	!
=49	=49	=49	=49	=49	=49	=49	=49	=49	=49	=49	=49	=49	=49	=49
4.c\	.	.	8.e/L	.	8.g/L	.	4r	.	8.gg\Lyy	ve-	2ryy	4.c/	.	.
.	.	.	16d/Jk	.	16f/Jk	.	.	.	16ff\Jkyy	.	.	.	.	.
!	!	!	!LO:TX:a:t=P:mixed beam:problem	!	!LO:TX:a:t=P:mixed beam:problem	!	!	!	!	!	!	!	!	!
.	.	.	8c/L	.	8e/L	.	8r	.	8ee\yy	-nit	.	.	.	.
8E\	.	.	8cc\J	.	16gg\L	.	8c\	in	8gg\yy	in	.	8g\	.	.
.	.	.	.	.	16ee\JJ	.	.	.	.	.	.	.	.	.
=50	=50	=50	=50	=50	=50	=50	=50	=50	=50	=50	=50	=50	=50	=50
!LO:TX:a:t=P:mixed beam:problem	!	!	!	!	!	!	!	!	!	!	!	!	!	!
8F\L	.	.	16cc/LL	.	16aa\LL	.	8c\	No-	8aa\yy	no-	2ryy	4a\	2r	2r
.	.	.	16a/	.	16ff\	.	.	.	.	.	.	.	.	.
8F\	.	.	16g/	.	16ee\	.	16A\	-mi-	16ff\yy	-mi-	.	.	.	.
.	.	.	16f/JJ	.	16dd\JJ	.	16A\	-ne	16ff\yy	-ne	.	.	.	.
!	!	!	!	!	!	!	!LO:LB:g=original	!	!	!	!	!	!	!
8G\	.	.	16f/LL	.	16dd\LL	.	8G\	Do-	16ff\LLyy	Do-	.	8g\L	.	.
.	.	.	16e/	.	16cc\	.	.	.	16ee\JJyy	.	.	.	.	.
8GG/J	.	.	16e/	.	16cc\	.	8G\	-mi-	16ee\LLyy	-mi	.	8g\J	.	.
.	.	.	16d/JJ	.	16bn\JJ	.	.	.	16dd\JJyy	.	.	.	.	.
!	!	!	!	!	!LO:PB:g=original	!	!	!	!	!	!	!	!LO:LB:g=original	!
=51	=51	=51	=51	=51	=51	=51	=51	=51	=51	=51	=51	=51	=51	=51
2C/	.	.	8e/L	.	8cc-X\	.	8E\	-ni	4cc\	-ni	2ryy	4c/	4e/	4cc\
.	.	.	32e/LL	.	8r	.	8r	.	.	.	.	.	.	.
.	.	.	32f/	.	.	.	.	.	.	.	.	.	.	.
.	.	.	32g/	.	.	.	.	.	.	.	.	.	.	.
.	.	.	32f/JJJ	.	.	.	.	.	.	.	.	.	.	.
.	.	.	4f/	.	8r	.	4r	.	4r	.	.	4r	4f/	4dd\
.	.	.	.	.	32bn\LLL	.	.	.	.	.	.	.	.	.
.	.	.	.	.	32cc-\	.	.	.	.	.	.	.	.	.
.	.	.	.	.	32dd\	.	.	.	.	.	.	.	.	.
.	.	.	.	.	32b\JJJ	.	.	.	.	.	.	.	.	.
=52	=52	=52	=52	=52	=52	=52	=52	=52	=52	=52	=52	=52	=52	=52
!	!	!	!	!	!	!	!LO:TX:a:t=1	!	!	!	!	!	!	!
2C/	.	.	8e/L	.	8cc\	.	2r	.	2r	.	2ryy	2c/	4e/	4cc\
.	.	.	32e/LL	.	8r	.	.	.	.	.	.	.	.	.
.	.	.	32f/	.	.	.	.	.	.	.	.	.	.	.
.	.	.	32g/	.	.	.	.	.	.	.	.	.	.	.
.	.	.	32f/JJJ	.	.	.	.	.	.	.	.	.	.	.
.	.	.	4f/	.	8r	.	.	.	.	.	.	.	4f/	4dd\
.	.	.	.	.	(32b-\LLL	.	.	.	.	.	.	.	.	.
.	.	.	.	.	32cc\	.	.	.	.	.	.	.	.	.
.	.	.	.	.	32dd\	.	.	.	.	.	.	.	.	.
.	.	.	.	.	32b-\JJJ)	.	.	.	.	.	.	.	.	.
!	!	!	!	!	!	!	!	!	!LO:LB:g=original	!	!	!	!	!
=53	=53	=53	=53	=53	=53	=53	=53	=53	=53	=53	=53	=53	=53	=53
8C/L	.	.	8e/L	.	8cc\L	.	4r	.	4r	.	2ryy	8c/L	4e/	4cc\
8C/	.	.	8G/ 8e/ 8cc/	.	8g\ 8cc\ 8ee\	.	.	.	.	.	.	8c/J	.	.
8C/J	.	.	8G/J 8e/ 8cc/	.	8g\J 8cc\ 8ee\	.	8r	.	8r	.	.	4c/	8r	8r
8r	.	.	8r	.	8r	.	16A\	Be-	16cc\	Be-	.	.	16a/LL	16cc\LL
.	.	.	.	.	.	.	16G\	-ne-	16b-\	-ne-	.	.	16g/JJ	16b-\JJ
=54	=54	=54	=54	=54	=54	=54	=54	=54	=54	=54	=54	=54	=54	=54
!LO:TX:a:t=4.	!	!	!	!	!	!	!	!	!	!	!	!LO:TX:a:t=7	!	!
!LO:N:vis=00	!	!	!	!	!	!	!	!	!	!	!	!LO:N:vis=00	!	!
0r	.	.	8r	.	8r	.	8F\	-dic-	8a\	-dic-	2ryy	0r	8f/L	8a/L
.	.	.	32f/LLL	.	32f/LLL	.	8F\	-tus	8a\	-tus	.	.	8f/J	8a/J
.	.	.	32e/	.	32e/	.	.	.	.	.	.	.	.	.
.	.	.	32f/	.	32f/	.	.	.	.	.	.	.	.	.
.	.	.	32e/JJJ	.	32e/JJJ	.	.	.	.	.	.	.	.	.
.	.	.	8f/	.	8f/	.	8r	.	8r	.	.	.	16r	16r
.	.	.	.	.	.	.	.	.	.	.	.	.	16f/LL	16a/LL
*	*	*	*	*	*	*	*Xtuplet	*	*Xtuplet	*	*	*	*	*
.	.	.	8r	.	8r	.	24F\LL	qui	24a\LL	qui	.	.	16g/	16b-/
.	.	.	.	.	.	.	24G\	.	24b-\	.	.	.	.	.
.	.	.	.	.	.	.	.	.	.	.	.	.	16a/JJ	16cc/JJ
.	.	.	.	.	.	.	24A\JJ	.	24cc\JJ	.	.	.	.	.
=55	=55	=55	=55	=55	=55	=55	=55	=55	=55	=55	=55	=55	=55	=55
!	!	!	!LO:SIC:o:s=:v:znak repetycji	!	!LO:SIC:o:s=:v:znak repetycji	!	!	!	!	!	!	!	!	!
.	.	.	32c/LLL	.	32c/LLL	f	16A\LL	ve-	16cc\LL	ve-	2ryy	.	16a/LL	16cc\LL
.	.	.	32Bn/	.	32Bn/	.	.	.	.	.	.	.	.	.
.	.	.	32c/	.	32c/	.	16G\JJ	.	16b-\JJ	.	.	.	16g/J	16b-\J
.	.	.	32B/JJ	.	32B/JJ	.	.	.	.	.	.	.	.	.
.	.	.	8c/J	.	8c/J	.	8G\	-nit	8b-\	-nit	.	.	8g/J	8b-\J
.	.	.	4r	.	4r	.	8r	.	8r	.	.	.	8r	8r
.	.	.	.	.	.	.	16G\	be-	16b-\	Be-	.	.	16g/LL	16b-\LL
.	.	.	.	.	.	.	16F\	-ne-	16a\	-ne-	.	.	16f/JJ	16a\JJ
!	!	!	!	!	!	!	!	!	!	!	!	!	!	!LO:LB:g=original
=56	=56	=56	=56	=56	=56	=56	=56	=56	=56	=56	=56	=56	=56	=56
!	!	!	!LO:SIC:o:s=:v:takt powtórzony znakiem repetycji	!	!LO:SIC:o:s=:v:takt powtórzony znakiem repetycji	!	!	!	!	!	!	!	!	!
.	.	.	32c/LLLyy	.	32c/LLLyy	.	8E\	-dic-	8g\	-dic-	2ryy	.	8e/L	8g/L
.	.	.	32Bn/yy	.	32Bn/yy	.	.	.	.	.	.	.	.	.
.	.	.	32c/yy	.	32c/yy	.	.	.	.	.	.	.	.	.
.	.	.	32B/JJyy	.	32B/JJyy	.	.	.	.	.	.	.	.	.
.	.	.	8c/Jyy	.	8c/Jyy	.	8E\	-tus	8g\	-tus	.	.	8e/J	8g/J
.	.	.	4ryy	.	4ryy	.	8r	.	8r	.	.	.	16r	16r
.	.	.	.	.	.	.	.	.	.	.	.	.	16e/LL	16g/LL
.	.	.	.	.	.	.	24E\LL	qui	24g\LL	qui	.	.	16f/	16a/
.	.	.	.	.	.	.	24F\	.	24a\	.	.	.	.	.
.	.	.	.	.	.	.	.	.	.	.	.	.	16g/JJ	16b-/JJ
.	.	.	.	.	.	.	24G\JJ	.	24b-\JJ	.	.	.	.	.
=57	=57	=57	=57	=57	=57	=57	=57	=57	=57	=57	=57	=57	=57	=57
.	.	.	8r	.	8r	.	16G\LL	ve-	16b-\LL	ve-	2ryy	.	16g/LL	16b-\LL
!	!	!	!LO:LB:g=original	!	!	!	!	!	!	!	!	!	!	!
.	.	.	.	.	.	.	16F\JJ	.	16a\JJ	.	.	.	16f/J	16a\J
.	.	.	32f/L	.	32f/L	.	8F\	-nit	8a\	-nit	.	.	8f/J	8a\J
.	.	.	32e/	.	32e/	.	.	.	.	.	.	.	.	.
.	.	.	32f/	.	32f/	.	.	.	.	.	.	.	.	.
.	.	.	32e/J	.	32e/J	.	.	.	.	.	.	.	.	.
.	.	.	8f/	.	8f/	.	4r	.	8r	.	.	.	8r	8r
.	.	.	8r	.	8r	.	.	.	16c/LL	qui	.	.	8a/	16.cc\LL
.	.	.	.	.	.	.	.	.	16f/JJ	.	.	.	.	.
.	.	.	.	.	.	.	.	.	.	.	.	.	.	32ff\JJk
!	!	!	!	!	!	!	!LO:LB:g=original	!	!	!	!	!	!	!
=58	=58	=58	=58	=58	=58	=58	=58	=58	=58	=58	=58	=58	=58	=58
!	!	!	!	!	!	!	!LO:SIC:o:s=:v:wykreślone takty	!	!	!	!	!LO:N:vis=0	!	!
8F\L	.	.	4r	.	4r	.	4r	.	8.a\	ve-	2ryy	1r	8.cc\L	8.aa\L
8C\J	.	.	.	.	.	.	.	.	.	.	.	.	.	.
.	.	.	.	.	.	.	.	.	16g\	.	.	.	16b-\Jk	16gg\Jk
!LO:TX:a:t=P:mixed beam:problem	!	!	!	!	!	!	!	!	!	!	!	!	!	!
8FF/L	.	.	8r	.	8r	.	8r	.	8f/	-nit	.	.	8a/	8ff\
8F\J	.	.	16.cc\LL	.	16.ff\LL	.	16C\LL	in	16f/LL	qui	.	.	8r	8r
.	.	.	.	.	.	.	16F\JJ	.	16a/JJ	.	.	.	.	.
.	.	.	32ff\JJk	.	32aa\JJk	.	.	.	.	.	.	.	.	.
!	!	!	!	!	!	!	!	!	!LO:PB:g=original	!	!	!	!	!
=59	=59	=59	=59	=59	=59	=59	=59	=59	=59	=59	=59	=59	=59	=59
!	!	!	!	!	!	!	!	!	!	!	!	!	!LO:TX:a:t=2	!LO:TX:a:t=2.
!	!	!	!	!	!	!	!	!	!	!	!	!	!LO:N:vis=0	!LO:N:vis=0
8r	.	.	8.aa\L	.	8.ccc\L	.	8.A\	no-	8.cc\	ve-	2ryy	.	1r	1r
8C\L	.	.	.	.	.	.	.	.	.	.	.	.	.	.
.	.	.	16gg\Jk	.	16bb-\Jk	.	16G\	-mi-	16b-\	.	.	.	.	.
!	!	!	!	!	!LO:LB:g=original	!	!	!	!	!	!	!	!	!
8F\J	.	.	16ff\LL	.	16aa\LL	.	8F\	-ne	8a\	-nit	.	.	.	.
.	.	.	16a\	.	16ff\	.	.	.	.	.	.	.	.	.
8r	.	.	16a\	.	16ff\	.	8A\	in	8ff\	in	.	.	.	.
.	.	.	16a\JJ	.	16ff\JJ	.	.	.	.	.	.	.	.	.
!LO:LB:g=original	!	!	!	!	!	!	!	!	!	!	!	!	!	!
=60	=60	=60	=60	=60	=60	=60	=60	=60	=60	=60	=60	=60	=60	=60
8r	.	.	16a\LL	.	16ff\LL	.	16A\LL	No-	16ff\LL	no-	2ryy	2r	.	.
.	.	.	16cc\	.	16ee\	.	16c\JJ	.	16ee\JJ	.	.	.	.	.
8F\L	.	.	16b-\	.	16dd\	.	16B-\	-mi-	16dd\	-mi-	.	.	.	.
.	.	.	16a\JJ	.	16cc\JJ	.	16A\	-ne	16cc\	-ne	.	.	.	.
8E\	.	.	16b-/LL	.	16dd\LL	.	16B-\LL	No-	16dd\LL	no-	.	.	.	.
.	.	.	16a/	.	16cc\	.	16A\JJ	.	16cc\JJ	.	.	.	.	.
8F\J	.	.	16g/	.	16b-\	.	16G\	-mi-	16b-\	-mi-	.	.	.	.
.	.	.	16f/JJ	.	16a\JJ	.	16F\	-ne	16a\	-ne	.	.	.	.
=61	=61	=61	=61	=61	=61	=61	=61	=61	=61	=61	=61	=61	=61	=61
8r	.	.	8f/L	.	8b-/L	.	16F\	Do-	16a\	Do-	2ryy	8r	8r	8r
.	.	.	.	.	.	.	16E\	-mi-	16a\	-mi-	.	.	.	.
!LO:TX:a:t=P:mixed beam:problem	!	!	!	!	!	!	!	!	!	!	!	!	!	!
8c\L	.	.	8e/J	.	8g/J	.	8E\	-ni	8g\	-ni	.	16c/LL	8ee\L	8gg\L
.	.	.	.	.	.	.	.	.	.	.	.	16c/JJ	.	.
8C/J	.	.	4r	.	4r	.	8r	.	4r	.	.	8c/	8ee\J	8gg\J
8r	.	.	.	.	.	.	8c\	qui	.	.	.	8r	8r	8r
!	!	!	!	!	!	!	!LO:LB:g=original	!	!	!	!	!	!	!
=62	=62	=62	=62	=62	=62	=62	=62	=62	=62	=62	=62	=62	=62	=62
!	!	!	!	!	!	!	!	!	!	!	!	!LO:TX:a:t=10.	!LO:TX:a:t=10	!LO:TX:a:t=10
!	!	!	!	!	!	!	!	!	!LO:N:vis=00	!	!	!LO:N:vis=00	!LO:N:vis=00	!LO:N:vis=00
16r	.	.	16r	.	16r	.	4c\	ve-	0r	.	2ryy	0r	0r	0r
16AA/LL	.	.	16f/LL	.	16cc\LL	.	.	.	.	.	.	.	.	.
16AA/	.	.	16f/	.	16cc\	.	.	.	.	.	.	.	.	.
16AA/JJ	.	.	16f/JJ	.	16cc\JJ	.	.	.	.	.	.	.	.	.
*tremolo	*	*	*tremolo	*	*tremolo	*	*	*	*	*	*	*	*	*
16AA/LL	.	.	16f/LL	.	16cc\LL	.	16B-X\LL	-nit	.	.	.	.	.	.
16AA/	.	.	16f/	.	16cc\	.	16A\JJ	.	.	.	.	.	.	.
16AA/	.	.	16f/	.	16cc\	.	16G\LL	in	.	.	.	.	.	.
16AA/JJ	.	.	16f/JJ	.	16cc\JJ	.	16F\JJ	.	.	.	.	.	.	.
*Xtremolo	*	*	*Xtremolo	*	*Xtremolo	*	*	*	*	*	*	*	*	*
=63	=63	=63	=63	=63	=63	=63	=63	=63	=63	=63	=63	=63	=63	=63
16r	.	.	16r	.	16r	.	16c\	No-	.	.	2ryy	.	.	.
16BB-/LL	.	.	16f/LL	.	16dd\LL	.	16B-\	-mi-	.	.	.	.	.	.
16BB-/	.	.	16f/	.	16dd\	.	8B-\	-ne	.	.	.	.	.	.
16BB-/JJ	.	.	16f/JJ	.	16dd\JJ	.	.	.	.	.	.	.	.	.
*tremolo	*	*	*tremolo	*	*tremolo	*	*	*	*	*	*	*	*	*
16BB-/LL	.	.	16f/LL	.	16dd\LL	.	8r	.	.	.	.	.	.	.
16BB-/	.	.	16f/	.	16dd\	.	.	.	.	.	.	.	.	.
16BB-/	.	.	16f/	.	16dd\	.	8d\	in	.	.	.	.	.	.
16BB-/JJ	.	.	16f/JJ	.	16dd\JJ	.	.	.	.	.	.	.	.	.
*Xtremolo	*	*	*Xtremolo	*	*Xtremolo	*	*	*	*	*	*	*	*	*
=64	=64	=64	=64	=64	=64	=64	=64	=64	=64	=64	=64	=64	=64	=64
16r	.	.	16r	.	16r	.	4d\	No-	.	.	2ryy	.	.	.
16F#X\LL	5	.	16a/LL	.	16dd\LL	.	.	.	.	.	.	.	.	.
16F#\	.	.	16a/	.	16dd\	.	.	.	.	.	.	.	.	.
16F#\JJ	.	.	16a/JJ	.	16dd\JJ	.	.	.	.	.	.	.	.	.
*tremolo	*	*	*tremolo	*	*tremolo	*	*	*	*	*	*	*	*	*
16F#\LL	.	.	16a/LL	.	16dd\LL	.	8A\	-mi-	.	.	.	.	.	.
16F#\	.	.	16a/	.	16dd\	.	.	.	.	.	.	.	.	.
16F#\	.	.	16a/	.	16dd\	.	8c\	-ne	.	.	.	.	.	.
16F#\JJ	.	.	16a/JJ	.	16dd\JJ	.	.	.	.	.	.	.	.	.
*Xtremolo	*	*	*Xtremolo	*	*Xtremolo	*	*	*	*	*	*	*	*	*
=65	=65	=65	=65	=65	=65	=65	=65	=65	=65	=65	=65	=65	=65	=65
16r	.	.	16r	.	16r	.	16c\	Do-	.	.	2ryy	.	.	.
16G\LL	-3	.	16b-/LL	.	16dd\LL	.	16B-\	-mi-	.	.	.	.	.	.
16G\	.	.	16b-/	.	16dd\	.	8B-\	-ni	.	.	.	.	.	.
16G\JJ	.	.	16b-/JJ	.	16dd\JJ	.	.	.	.	.	.	.	.	.
*tremolo	*	*	*tremolo	*	*tremolo	*	*	*	*	*	*	*	*	*
16G\LL	.	.	16b-/LL	.	16dd\LL	.	8r	.	.	.	.	.	.	.
16G\	.	.	16b-/	.	16dd\	.	.	.	.	.	.	.	.	.
16G\	.	.	16b-/	.	16dd\	.	8B-\	in	.	.	.	.	.	.
16G\JJ	.	.	16b-/JJ	.	16dd\JJ	.	.	.	.	.	.	.	.	.
*Xtremolo	*	*	*Xtremolo	*	*Xtremolo	*	*	*	*	*	*	*	*	*
!	!	!	!LO:LB:g=original	!	!	!	!	!	!	!	!	!	!	!
=66	=66	=66	=66	=66	=66	=66	=66	=66	=66	=66	=66	=66	=66	=66
*	*	*	*^	*	*	*	*	*	*	*	*	*	*	*
!	!	!	!	!	!	!	!	!	!	!LO:N:vis=00	!	!	!LO:N:vis=00	!LO:N:vis=00	!LO:N:vis=00
16r	.	.	16rg	16ryy	.	16r	.	4c\	No-	0r	.	2ryy	0r	0r	0r
16E\LL	.	.	16b-/LL	16ryy	.	16cc\LL	.	.	.	.	.	.	.	.	.
16E\	.	.	16b-/	16ryy	.	16cc\	.	.	.	.	.	.	.	.	.
16E\JJ	.	.	16b-/JJ	16ryy	.	16cc\JJ	.	.	.	.	.	.	.	.	.
*tremolo	*	*	*tremolo	*tremolo	*	*tremolo	*	*	*	*	*	*	*	*	*
16E\LL	.	.	16b-/LL	16g\LL	.	16cc\LL	.	8G\	-mi-	.	.	.	.	.	.
16E\	.	.	16b-/	16g\	.	16cc\	.	.	.	.	.	.	.	.	.
16E\	.	.	16b-/	16g\	.	16cc\	.	8B-\	-ne	.	.	.	.	.	.
16E\JJ	.	.	16b-/JJ	16g\JJ	.	16cc\JJ	.	.	.	.	.	.	.	.	.
*Xtremolo	*	*	*Xtremolo	*Xtremolo	*	*Xtremolo	*	*	*	*	*	*	*	*	*
*	*	*	*v	*v	*	*	*	*	*	*	*	*	*	*	*
=67	=67	=67	=67	=67	=67	=67	=67	=67	=67	=67	=67	=67	=67	=67
16r	.	.	16r	.	16r	.	16B-\	Do-	.	.	2ryy	.	.	.
16F\LL	.	.	16a/LL	.	16cc\LL	.	16A\	-mi-	.	.	.	.	.	.
16F\	.	.	16a/	.	16cc\	.	8A\	-ni	.	.	.	.	.	.
16F\JJ	.	.	16a/JJ	.	16cc\JJ	.	.	.	.	.	.	.	.	.
!LO:TX:a:t=P:mixed beam:problem	!	!	!	!	!	!	!	!	!	!	!	!	!	!
*	*	*	*tremolo	*	*	*	*	*	*	*	*	*	*	*
8F\L	.	.	16a/LL	.	8cc\	.	16r	.	.	.	.	.	.	.
.	.	.	16a/	.	.	.	16c\LL	Be-	.	.	.	.	.	.
8AA/J	.	.	16a/	.	8r	.	16B-\JJ	.	.	.	.	.	.	.
.	.	.	16a/JJ	.	.	.	16A\	-ne-	.	.	.	.	.	.
*	*	*	*Xtremolo	*	*	*	*	*	*	*	*	*	*	*
!LO:LB:g=original	!	!	!	!	!	!	!LO:LB:g=original	!	!	!	!	!	!	!
=68	=68	=68	=68	=68	=68	=68	=68	=68	=68	=68	=68	=68	=68	=68
8BB-/	.	.	16r	.	16r	.	16A\LL	-dic-	.	.	2ryy	.	.	.
.	.	.	16ff\LL	.	16gg\LL	.	16G\JJ	.	.	.	.	.	.	.
8r	.	.	16ff\	.	16gg\	.	4G\	-tus	.	.	.	.	.	.
.	6	.	16ff\JJ	.	16gg\JJ	.	.	.	.	.	.	.	.	.
8BBn/	.	.	16r	.	16r	.	.	.	.	.	.	.	.	.
.	5	.	16ff\LL	.	16gg\LL	.	.	.	.	.	.	.	.	.
8r	.	.	16ff\	.	16gg\	.	8F\	qui	.	.	.	.	.	.
.	.	.	16ff\JJ	.	16gg\JJ	.	.	.	.	.	.	.	.	.
=69	=69	=69	=69	=69	=69	=69	=69	=69	=69	=69	=69	=69	=69	=69
8C/	.	.	16r	.	16r	.	8E\	ve-	.	.	2ryy	.	.	.
.	.	.	16ee\LL	.	16gg\LL	.	.	.	.	.	.	.	.	.
8r	.	.	16ee\	.	16gg\	.	16D\LL	.	.	.	.	.	.	.
.	.	.	16ee\JJ	.	16gg\JJ	.	16C\JJ	.	.	.	.	.	.	.
8AA/	6	.	16r	.	16r	.	16F\	-nit	.	.	.	.	.	.
.	.	.	16cc\LL 16ee\	.	16ff\LL	.	16c\LL	in	.	.	.	.	.	.
8r	.	.	16cc\ 16ee\	.	16ff\	.	16B-\	.	.	.	.	.	.	.
.	.	.	16cc\JJ 16ee\	.	16ff\JJ	.	16A\JJ	.	.	.	.	.	.	.
=70	=70	=70	=70	=70	=70	=70	=70	=70	=70	=70	=70	=70	=70	=70
!	!	!	!	!	!	!	!	!	!LO:N:vis=0	!	!	!LO:N:vis=0	!LO:N:vis=0	!LO:N:vis=0
8BB-/	6	.	16r	.	16r	.	16A\LL	no-	1r	.	2ryy	1r	1r	1r
.	.	.	16ff\LL	.	16gg\LL	.	16G\JJ	.	.	.	.	.	.	.
8r	.	.	16ff\	.	16gg\	.	4G\	-mi-	.	.	.	.	.	.
.	6	.	16ff\JJ	.	16gg\JJ	.	.	.	.	.	.	.	.	.
8BBn/	.	.	16r	.	16r	.	.	.	.	.	.	.	.	.
.	5	.	16dd\LL	.	16ff\LL	.	.	.	.	.	.	.	.	.
8r	.	.	16dd\	.	16ff\	.	8F\	-ne	.	.	.	.	.	.
.	.	.	16dd\JJ	.	16ff\JJ	.	.	.	.	.	.	.	.	.
=71	=71	=71	=71	=71	=71	=71	=71	=71	=71	=71	=71	=71	=71	=71
16r	.	.	16r	.	16r	.	16F\	Do-	.	.	2ryy	.	.	.
16C/LL	.	.	16g/LL	.	16ee\LL	.	16C/	-mi-	.	.	.	.	.	.
16C/	.	.	16g/	.	16ee\	.	8C/	-ni	.	.	.	.	.	.
16C/JJ	.	.	16g/JJ	.	16ee\JJ	.	.	.	.	.	.	.	.	.
!	!	!	!	!	!LO:TX:a:t=P:mixed beam:problem	!	!	!	!	!	!	!	!	!
*tremolo	*	*	*	*	*	*	*	*	*	*	*	*	*	*
16C/LL	.	.	8g/	.	8ee\L	f	4r	.	.	.	.	.	.	.
16C/	.	.	.	.	.	.	.	.	.	.	.	.	.	.
16C/	.	.	32c/LLL	.	32c/LL	.	.	.	.	.	.	.	.	.
.	.	.	32Bn/	.	32Bn/	.	.	.	.	.	.	.	.	.
16C/JJ	.	.	32c/	.	32c/	.	.	.	.	.	.	.	.	.
.	.	.	32B/JJJ	.	32B/JJJ	.	.	.	.	.	.	.	.	.
*Xtremolo	*	*	*	*	*	*	*	*	*	*	*	*	*	*
=72	=72	=72	=72	=72	=72	=72	=72	=72	=72	=72	=72	=72	=72	=72
8r	.	.	8c/	.	8c/	.	4r	.	4r	.	2ryy	8r	4.cc\	4.cc\
32C/LLL	.	.	8r	.	8r	.	.	.	.	.	.	16c/LL	.	.
32BBn/	.	.	.	.	.	.	.	.	.	.	.	.	.	.
32C/	.	.	.	.	.	.	.	.	.	.	.	16c/JJ	.	.
32BB/JJJ	.	.	.	.	.	.	.	.	.	.	.	.	.	.
8C/	.	.	8r	.	8r	.	8r	.	8r	.	.	8c/	.	.
8r	.	.	16.gg\LL	p	16.bb-\LL	p	16.B-\LL	O-	16gg\LL	qui	.	8r	8gg\	8bb-\
.	.	.	.	.	.	.	.	.	16ee\JJ	.	.	.	.	.
.	.	.	32ee\JJk	.	32gg\JJk	.	32G\JJk	.	.	.	.	.	.	.
!	!	!	!LO:LB:g=original	!	!	!	!	!	!	!	!	!LO:LB:g=original	!	!
=73	=73	=73	=73	=73	=73	=73	=73	=73	=73	=73	=73	=73	=73	=73
!	!	!	!	!	!	!	!O:TX:a:t=problem&colon; w źródle bra ropi przy pierwszej nucie	!	!	!	!	!LO:TX:a:t=1.	!	!
8F\L	.	.	8ff\L	.	8aa\L	.	8.A\L	-san-	8.ff\L	ve-	2ryy	2r	8ff\L	8aa\L
8C\	.	.	16.gg\L	.	16.bb-\L	.	.	.	.	.	.	.	8gg\	8bb-\
.	.	.	.	.	.	.	32B-\LL	.	32gg\LL	.	.	.	.	.
.	.	.	32ee\JJk	.	32gg\JJk	.	32A\JJJ	.	32ff\JJJ	.	.	.	.	.
!	!	!	!LO:TX:a:t=P:mixed beam:problem	!	!LO:TX:a:t=P:mixed beam:problem	!	!	!	!	!	!	!	!	!
8F\J	.	.	8ff\L	.	8aa\L	.	8A\	-na	8ff\	-nit	.	.	8ff\J	8aa\J
8r	.	.	32c/LL	.	32c/LL	.	8r	.	8r	.	.	.	8r	8r
.	.	.	32Bn/	.	32Bn/	.	.	.	.	.	.	.	.	.
.	.	.	32c/	.	32c/	.	.	.	.	.	.	.	.	.
.	.	.	32B/JJJ	.	32B/JJJ	.	.	.	.	.	.	.	.	.
!LO:LB:g=original	!	!	!	!	!	!	!	!	!LO:LB:g=original	!	!	!	!LO:PB:g=original	!
=74	=74	=74	=74	=74	=74	=74	=74	=74	=74	=74	=74	=74	=74	=74
8r	.	.	8c/	.	8c/	.	4r	.	4r	.	2ryy	8r	4.cc\	4.cc\
32C/LLL	.	f	8r	.	8r	.	.	.	.	.	.	16c/LL	.	.
32BBn/	.	.	.	.	.	.	.	.	.	.	.	.	.	.
32C/	.	.	.	.	.	.	.	.	.	.	.	16c/JJ	.	.
32BB/JJJ	.	.	.	.	.	.	.	.	.	.	.	.	.	.
8C/	.	.	8r	.	8r	.	8r	.	8r	.	.	8c/	.	.
8r	.	.	16.gg\LL	.	16.bb-\LL	.	16B-\LL	O-	16gg\LL	qui	.	8r	8gg\	8bb-\
.	.	.	.	.	.	.	16G\JJ	.	16ee\JJ	.	.	.	.	.
.	.	.	32ee\JJk	.	32gg\JJk	.	.	.	.	.	.	.	.	.
!	!	!	!	!	!LO:LB:g=original	!	!LO:LB:g=original	!	!	!	!	!	!	!
=75	=75	=75	=75	=75	=75	=75	=75	=75	=75	=75	=75	=75	=75	=75
!	!	!	!	!	!	!	!O:TX:a:t=problem&colon; w źródle bra ropi przy pierwszej nucie	!	!	!	!	!LO:TX:a:t=1.	!	!
8F\L	.	.	8ff\L	.	8aa\L	.	8.A\L	-san-	8.ff\L	ve-	2ryy	2r	8ff\L	8aa\L
8C\	.	.	16.gg\L	.	16.bb-\L	.	.	.	.	.	.	.	8gg\	8bb-\
.	.	.	.	.	.	.	32B-\LL	.	32gg\LL	.	.	.	.	.
.	.	.	32ee\JJk	.	32gg\JJk	.	32A\JJJ	.	32ff\JJJ	.	.	.	.	.
8F\J	.	.	8ff\	.	8aa\L	.	8A\	-na	8ff\	-nit	.	.	8ff\J	8aa\J
8r	.	.	8r	.	32ff\LL	.	8r	.	8r	.	.	.	8r	8r
.	.	.	.	.	32ee\	.	.	.	.	.	.	.	.	.
.	.	.	.	.	32ff\	.	.	.	.	.	.	.	.	.
.	.	.	.	.	32ee\JJJ	.	.	.	.	.	.	.	.	.
=76	=76	=76	=76	=76	=76	=76	=76	=76	=76	=76	=76	=76	=76	=76
*tremolo	*	*	*	*	*	*	*	*	*	*	*	*	*	*
8AA/L	.	.	8r	.	16ff\KL	.	4c\	qui	8r	.	2ryy	8r	2cc\	2ee-X\
.	.	.	.	.	8ee-X\	.	.	.	.	.	.	.	.	.
8AA/	.	.	8cc\L	f	.	.	.	.	8ff\	qui	.	8f\L	.	.
.	.	.	.	.	8ee-\	.	.	.	.	.	.	.	.	.
8AA/	.	.	8cc\	.	.	.	4c\	ve-	4ff\	ve-	.	8f\	.	.
.	.	.	.	.	8ee-\	.	.	.	.	.	.	.	.	.
8AA/J	.	.	16cc\L	.	.	.	.	.	.	.	.	8f\J	.	.
.	.	.	16cc\JJ	.	16ee-\Jk	.	.	.	.	.	.	.	.	.
*Xtremolo	*	*	*	*	*	*	*	*	*	*	*	*	*	*
=77	=77	=77	=77	=77	=77	=77	=77	=77	=77	=77	=77	=77	=77	=77
8BB-/	.	.	8b-\	.	8dd\L	.	8c\	-nit	8ff\	-nit	2ryy	4f\	4b-\	4dd\
8r	.	.	8r	.	32gg\LL	.	8r	.	8r	.	.	.	.	.
.	.	.	.	.	32ff#X\	.	.	.	.	.	.	.	.	.
.	.	.	.	.	32aa\	.	.	.	.	.	.	.	.	.
.	.	.	.	.	32gg\JJJ	.	.	.	.	.	.	.	.	.
4r	.	.	4r	.	32bb-\LLL	.	4r	.	4r	.	.	4r	4r	4r
.	.	.	.	.	32aa\	.	.	.	.	.	.	.	.	.
.	.	.	.	.	32ccc\	.	.	.	.	.	.	.	.	.
.	.	.	.	.	32bb-\JJ	.	.	.	.	.	.	.	.	.
.	.	.	.	.	8ddd\J	.	.	.	.	.	.	.	.	.
!	!	!	!	!	!	!	!	!	!	!	!	!	!	!LO:LB:g=original
=78	=78	=78	=78	=78	=78	=78	=78	=78	=78	=78	=78	=78	=78	=78
*	*	*	*tremolo	*	*	*	*	*	*	*	*	*	*	*
16C/LL	.	.	16ff\LL	.	4cc\	.	8A\	Be-	8ff\	Be-	2ryy	4a\	4ff\	4aa\
16C/	.	.	16ff\	.	.	.	.	.	.	.	.	.	.	.
16C/	.	.	16ff\	.	.	.	8A\	-ne-	8ff\	-ne-	.	.	.	.
16C/JJ	.	.	16ff\JJ	.	.	.	.	.	.	.	.	.	.	.
*tremolo	*	*	*Xtremolo	*	*	*	*	*	*	*	*	*	*	*
16C/LL	.	.	16ff\LL	.	4gg\	.	8A\L	-dic-	8ff\L	-dic-	.	4g\	4ee\	4gg\
16C/	.	.	16ff\	.	.	.	.	.	.	.	.	.	.	.
16C/	.	.	16ee\	.	.	.	8G\J	.	8ee\J	.	.	.	.	.
16C/JJ	.	.	16ee\JJ	.	.	.	.	.	.	.	.	.	.	.
*Xtremolo	*	*	*	*	*	*	*	*	*	*	*	*	*	*
=79	=79	=79	=79	=79	=79	=79	=79	=79	=79	=79	=79	=79	=79	=79
4F\	.	.	4ff\	.	4ff\	.	4A\	-tus	4ff\	-tus	2ryy	2f\	8ff\L	8ff\L
.	.	.	.	.	.	.	.	.	.	.	.	.	8a\	8ff\
4r	.	.	4r	.	8r	.	8r	.	4r	.	.	.	8a\J	8ff\J
.	.	.	.	.	16.cc\LL	.	16C\LL	qui	.	.	.	.	8r	8r
.	.	.	.	.	.	.	16F\JJ	.	.	.	.	.	.	.
.	.	.	.	.	32ff\JJk	.	.	.	.	.	.	.	.	.
=80	=80	=80	=80	=80	=80	=80	=80	=80	=80	=80	=80	=80	=80	=80
!LO:TX:a:t=1.	!	!	!	!	!	!	!	!	!LO:TX:a:t=1.	!	!	!	!LO:TX:a:t=6.	!LO:TX:a:t=6.
!	!	!	!	!	!	!	!	!	!	!	!	!	!LO:N:vis=00	!LO:N:vis=00
2r	.	.	4r	.	8.aa\L	.	8.A\L	ve-	2r	.	2ryy	2f\	0r	0r
.	.	.	.	.	16gg\Jk	.	16G\Jk	.	.	.	.	.	.	.
.	.	.	8r	.	8ff\L	.	8F\	-nit	.	.	.	.	.	.
.	.	.	16.cc\LL	.	16.ff\L	.	16F\LL	qui	.	.	.	.	.	.
.	.	.	.	.	.	.	16A\JJ	.	.	.	.	.	.	.
.	.	.	32ff\JJk	.	32aa\JJk	.	.	.	.	.	.	.	.	.
!LO:LB:g=original	!	!	!	!	!	!	!	!	!	!	!	!	!	!
=81	=81	=81	=81	=81	=81	=81	=81	=81	=81	=81	=81	=81	=81	=81
4r	.	.	8.aa\L	.	8.ccc\L	.	8.c\L	ve-	4r	.	2ryy	4.f\	.	.
.	.	.	16gg\Jk	.	16bb-\Jk	.	16B-\Jk	.	.	.	.	.	.	.
!	!	!	!LO:SIC:o:s=:v:takt od połowy niewidoczny	!	!	!	!	!	!	!	!	!	!	!
8r	.	.	4r	.	8aa\L	.	8A\	-nit	8r	.	.	.	.	.
8F\	.	.	.	.	16ccc\L	.	8A\	in	8cc\	in	.	8cc\	.	.
.	.	.	.	.	16aa\JJ	.	.	.	.	.	.	.	.	.
!	!	!	!LO:LB:g=original	!	!	!	!	!	!	!	!	!	!	!
=82	=82	=82	=82	=82	=82	=82	=82	=82	=82	=82	=82	=82	=82	=82
8B-\L	.	.	16cc\LL	.	16aa\LL	.	16A\LL	no-	16cc\LL	no-	2ryy	16cc\LL	.	.
.	.	.	16b-\	.	16gg\	.	16G\JJ	.	16b-\JJ	.	.	16b-\	.	.
8B-\	.	.	16dd\	.	16bb-\	.	16B-\L	-mi-	16dd\LL	-mi-	.	16dd\	.	.
.	.	.	16b-\JJ	.	16gg\JJ	.	16G\J	-ne	16b-\JJ	-ne	.	16b-\JJ	.	.
!	!	!	!	!	!	!	!LO:LB:g=original	!	!LO:LB:g=original	!	!	!	!	!
!LO:TX:a:t=P:mixed beam:problem	!	!	!	!	!	!	!	!	!	!	!	!	!	!
8c\	.	.	16b-/LL	.	16gg\LL	.	16A\LL	Do-	16b-\LL	Do-	.	16b-\LL	.	.
.	.	.	16a/	.	16ff\	.	16F\	.	16a\	.	.	16a\	.	.
8C/J	.	.	16a/	.	16ff\	.	16F\	-mi-	16a\	-mi-	.	16a\	.	.
.	.	.	16g/JJ	.	16ee\JJ	.	16E\JJ	.	16g\JJ	.	.	16g\JJ	.	.
!	!	!	!	!	!LO:LB:g=original	!	!	!	!	!	!	!	!	!
=83	=83	=83	=83	=83	=83	=83	=83	=83	=83	=83	=83	=83	=83	=83
8F\	.	.	8a/	.	8ff\	.	4F\	-ni	4a\	-ni	2ryy	2f\	.	.
8r	.	.	8r	.	8r	.	.	.	.	.	.	.	.	.
4r	.	.	4r	.	8r	.	8r	.	4r	.	.	.	.	.
.	.	.	.	.	16.c/LL	.	16C\LL	qui	.	.	.	.	.	.
.	.	.	.	.	.	.	16F\JJ	.	.	.	.	.	.	.
.	.	.	.	.	32f/JJk	.	.	.	.	.	.	.	.	.
=84	=84	=84	=84	=84	=84	=84	=84	=84	=84	=84	=84	=84	=84	=84
!LO:TX:a:t=1.	!	!	!	!	!	!	!	!	!LO:TX:A:t=1.	!	!	!	!LO:N:vis=0	!LO:N:vis=0
2r	.	.	4r	.	8.a/L	.	8.A\L	ve-	2r	.	2ryy	2f\	1r	1r
.	.	.	.	.	16g/Jk	.	16G\Jk	.	.	.	.	.	.	.
.	.	.	8r	.	8f/L	.	8F\	-nit	.	.	.	.	.	.
.	.	.	16.c/LL	.	16.f/L	.	16F\LL	qui	.	.	.	.	.	.
.	.	.	.	.	.	.	16A\JJ	.	.	.	.	.	.	.
.	.	.	32f/JJk	.	32a/JJk	.	.	.	.	.	.	.	.	.
!	!	!	!	!	!	!	!	!	!	!	!	!LO:LB:g=original	!	!
=85	=85	=85	=85	=85	=85	=85	=85	=85	=85	=85	=85	=85	=85	=85
4r	.	.	8.a/L	.	8.cc\L	.	8.c\L	ve-	4r	.	2ryy	4.f\	.	.
.	.	.	16g/Jk	.	16g\Jk	.	16B-\Jk	.	.	.	.	.	.	.
!	!	!	!LO:TX:a:t=P:mixed beam:problem	!	!LO:TX:a:t=P:mixed beam:problem	!	!	!	!	!	!	!	!	!
8r	.	.	8f/L	.	8a/L	.	8A\	-nit	8r	.	.	.	.	.
8A\	6	.	8ff\J	.	16ccc\L	.	8c\	in	8ff\	in	.	8f\	.	.
.	.	.	.	.	16aa\JJ	.	.	.	.	.	.	.	.	.
=86	=86	=86	=86	=86	=86	=86	=86	=86	=86	=86	=86	=86	=86	=86
8B-\L	6	.	16ff\LL	.	16ddd\LL	.	8B-\	No-	16ff\LL	No-	2ryy	8f\	8r	8r
.	.	.	16dd\	.	16bb-\	.	.	.	16dd\JJ	.	.	.	.	.
8B-\	.	.	16cc\	.	16aa\	.	16A\LL	-mi-	16cc\LL	-mi-	.	16r	8b-\	8gg\
.	.	.	16b-\JJ	.	16gg\JJ	.	16G\JJ	.	16b-\JJ	.	.	16b-\	.	.
!LO:TX:a:t=P:mixed beam:problem	!	!	!	!	!	!	!	!	!	!	!	!	!	!
8c\	4	.	16b-/LL	.	(16gg\LL	.	16G\LL	-ne	16b-\LL	-ne	.	16b-\LL	16b-\LL	16gg\LL
.	.	.	16a/	.	16ff\)	.	16F\	Do-	16a\	Do-	.	16a\	16a\	16ff\
8C/J	3	.	16g/	.	(16ff\	.	16F\	-mi-	16a\	-mi-	.	16a\	16a\	16ee\
.	.	.	16f/JJ	.	16ee\JJ)	.	16E\JJ	.	16g\JJ	.	.	16g\JJ	16g\JJ	16dd\JJ
=87	=87	=87	=87	=87	=87	=87	=87	=87	=87	=87	=87	=87	=87	=87
2F\	.	.	8a/L	.	8ff\	.	8F\	-ni	8a\	-ni	2ryy	8f\	4a/	4ff\
.	.	.	32a/LL	.	8r	.	8r	.	8r	.	.	8r	.	.
.	.	.	32b-/	.	.	.	.	.	.	.	.	.	.	.
.	.	.	32cc/	.	.	.	.	.	.	.	.	.	.	.
.	.	.	32a/JJJ	.	.	.	.	.	.	.	.	.	.	.
.	.	.	4b-/	.	8r	.	4r	.	4r	.	.	4r	8g/L	4ee\
.	.	.	.	.	(32ee\LLL	.	.	.	.	.	.	.	8b-/J	.
.	.	.	.	.	32ff\	.	.	.	.	.	.	.	.	.
.	.	.	.	.	32gg\	.	.	.	.	.	.	.	.	.
.	.	.	.	.	32ee\JJJ)	.	.	.	.	.	.	.	.	.
=88	=88	=88	=88	=88	=88	=88	=88	=88	=88	=88	=88	=88	=88	=88
!	!	!	!	!	!	!	!LO:N:vis=0	!	!LO:N:vis=0	!	!	!	!	!
2F\	.	.	8a/L	.	8ff\	.	1r	.	1r	.	2ryy	2f\	4a/	4ff\
.	.	.	32a/LL	.	8r	.	.	.	.	.	.	.	.	.
.	.	.	32b-/	.	.	.	.	.	.	.	.	.	.	.
.	.	.	32cc/	.	.	.	.	.	.	.	.	.	.	.
.	.	.	32a/JJJ	.	.	.	.	.	.	.	.	.	.	.
.	.	.	4b-/	.	8r	.	.	.	.	.	.	.	8g/L	4ee\
.	.	.	.	.	(32ee\LLL	.	.	.	.	.	.	.	8b-/J	.
.	.	.	.	.	32ff\	.	.	.	.	.	.	.	.	.
.	.	.	.	.	32gg\	.	.	.	.	.	.	.	.	.
.	.	.	.	.	32ee\JJJ)	.	.	.	.	.	.	.	.	.
=89	=89	=89	=89	=89	=89	=89	=89	=89	=89	=89	=89	=89	=89	=89
!LO:TX:a:t=P:mixed beam:problem	!	!	!	!	!	!	!	!	!	!	!	!	!	!
8F\L	.	.	8a\L	.	8ff\L	.	.	.	.	.	2ryy	8f\L	8a/L	8ff\L
16FF/L	.	.	16.a\L 16.ff\	.	16.ff\L	.	.	.	.	.	.	16f\L	8a/	8ff\
16FF/JJ	.	.	.	.	.	.	.	.	.	.	.	16f\JJ	.	.
.	.	.	32a\JJk 32ff\	.	32aa\JJk	.	.	.	.	.	.	.	.	.
8FF/	.	.	8a\ 8ff\	.	8a\ 8ff\	.	.	.	.	.	.	8f\	8a/J	8ff\J
8r	.	.	8r	.	8r	.	.	.	.	.	.	8r	8r	8r
==	==	==	==	==	==	==	==	==	==	==	==	==	==	==
*-	*-	*-	*-	*-	*-	*-	*-	*-	*-	*-	*-	*-	*-	*-
!!!system-decoration: [(s1,s2)][(s3,s4)][(s5,s6)][(s7,s8)]s9
!!!RDF**kern: > = above
!!!RDF**kern: < = below
!!!RDF**dynam: f = for
!!!RDF**dynam: p = p.
!!!EED: Leszek Kubiak
!!!EST: 2020-10-10
!!!ENC: Tomasz Grochalski
!!!END: 2020-06-03
